;FLAVOR:UltiGCode
;TIME:1090
;MATERIAL:154031
;MATERIAL2:0
;NOZZLE_DIAMETER:0.4
;MINX:44.398
;MINY:51.898
;MINZ:0.3
;MAXX:120.602
;MAXY:128.175
;MAXZ:144.3
;Generated with Cura_SteamEngine 4.13.1
M82 ;absolute extrusion mode
G28 ;Home
G1 Z15.0 F6000 ;Move the platform down 15mm
;Prime the extruder
G92 E0
G1 F200 E3
G92 E0
G92 E0
G92 E0
G10
;LAYER_COUNT:97
;LAYER:0
M107
;MESH:Vaza_zakljucna.STL
G0 F3600 X83.486 Y116.909 Z0.3
;TYPE:WALL-OUTER
G11
G1 F1800 X82.5 Y116.927 E1.47925
G1 X81.514 Y116.909 E2.95849
G1 X80.593 Y116.86 E4.34195
G1 X79.626 Y116.773 E5.79831
G1 X78.662 Y116.653 E7.25547
G1 X78.426 Y116.613 E7.61451
G1 X77.714 Y116.499 E8.69612
G1 X76.79 Y116.316 E10.10904
G1 X75.841 Y116.091 E11.572
G1 X74.913 Y115.836 E13.0156
G1 X73.984 Y115.546 E14.47541
G1 X73.097 Y115.233 E15.88632
G1 X72.862 Y115.139 E16.26598
G1 X72.181 Y114.873 E17.36264
G1 X71.335 Y114.505 E18.7465
G1 X70.447 Y114.08 E20.22319
G1 X69.591 Y113.632 E21.67241
G1 X69.38 Y113.51 E22.03801
G1 X68.777 Y113.169 E23.07712
G1 X67.938 Y112.652 E24.55537
G1 X67.141 Y112.119 E25.99357
G1 X66.942 Y111.973 E26.36379
G1 X66.357 Y111.553 E27.44402
G1 X65.611 Y110.973 E28.86144
G1 X64.853 Y110.34 E30.34276
G1 X64.157 Y109.715 E31.74592
G1 X63.459 Y109.041 E33.20136
G1 X62.785 Y108.343 E34.65681
G1 X62.16 Y107.647 E36.05997
G1 X61.527 Y106.889 E37.54129
G1 X60.944 Y106.139 E38.9662
G1 X60.381 Y105.357 E40.41158
G1 X59.84 Y104.549 E41.87017
G1 X59.347 Y103.751 E43.27717
G1 X59.221 Y103.526 E43.66399
G1 X58.871 Y102.915 E44.72021
G1 X58.42 Y102.053 E46.17949
G1 X57.995 Y101.165 E47.65618
G1 X57.631 Y100.326 E49.02802
G1 X57.267 Y99.403 E50.5163
G1 X56.958 Y98.527 E51.90965
G1 X56.665 Y97.594 E53.37653
G1 X56.599 Y97.347 E53.76003
G1 X56.408 Y96.655 E54.83685
G1 X56.184 Y95.71 E56.29362
G1 X55.999 Y94.777 E57.72037
G1 X55.847 Y93.841 E59.14276
G1 X55.727 Y92.882 E60.59248
G1 X55.64 Y91.907 E62.06079
G1 X55.591 Y90.986 E63.44425
G1 X55.573 Y90 E64.92349
G1 X55.591 Y89.014 E66.40274
G1 X55.64 Y88.093 E67.78619
G1 X55.727 Y87.126 E69.24255
G1 X55.847 Y86.162 E70.69971
G1 X55.887 Y85.926 E71.05876
G1 X56.001 Y85.214 E72.14036
G1 X56.184 Y84.29 E73.55328
G1 X56.409 Y83.341 E75.01625
G1 X56.664 Y82.413 E76.45984
G1 X56.954 Y81.484 E77.91966
G1 X57.267 Y80.597 E79.33057
G1 X57.361 Y80.362 E79.71022
G1 X57.627 Y79.681 E80.80688
G1 X57.995 Y78.835 E82.19074
G1 X58.42 Y77.947 E83.66744
G1 X58.868 Y77.091 E85.11666
G1 X58.99 Y76.88 E85.48225
G1 X59.331 Y76.277 E86.52137
G1 X59.848 Y75.438 E87.99962
G1 X60.381 Y74.641 E89.43782
G1 X60.527 Y74.442 E89.80804
G1 X60.947 Y73.857 E90.88827
G1 X61.527 Y73.111 E92.30568
G1 X62.16 Y72.353 E93.78701
G1 X62.785 Y71.657 E95.19016
G1 X63.459 Y70.959 E96.64561
G1 X64.157 Y70.285 E98.10106
G1 X64.853 Y69.66 E99.50421
G1 X65.611 Y69.027 E100.98554
G1 X66.361 Y68.444 E102.41045
G1 X67.143 Y67.881 E103.85582
G1 X67.951 Y67.34 E105.31441
G1 X68.749 Y66.847 E106.72142
G1 X68.974 Y66.721 E107.10824
G1 X69.585 Y66.371 E108.16445
G1 X70.447 Y65.92 E109.62374
G1 X71.335 Y65.495 E111.10043
G1 X72.174 Y65.131 E112.47227
G1 X73.097 Y64.767 E113.96054
G1 X73.973 Y64.458 E115.35389
G1 X74.906 Y64.165 E116.82078
G1 X75.153 Y64.099 E117.20428
G1 X75.845 Y63.908 E118.28109
G1 X76.79 Y63.684 E119.73787
G1 X77.723 Y63.499 E121.16462
G1 X78.659 Y63.347 E122.58701
G1 X79.618 Y63.227 E124.03673
G1 X80.593 Y63.14 E125.50504
G1 X81.514 Y63.091 E126.88849
G1 X82.5 Y63.073 E128.36774
G1 X83.486 Y63.091 E129.84699
G1 X84.407 Y63.14 E131.23044
G1 X85.374 Y63.227 E132.6868
G1 X86.338 Y63.347 E134.14396
G1 X86.574 Y63.387 E134.50301
G1 X87.286 Y63.501 E135.58461
G1 X88.21 Y63.684 E136.99753
G1 X89.159 Y63.909 E138.46049
G1 X90.087 Y64.164 E139.90409
G1 X91.016 Y64.454 E141.36391
G1 X91.903 Y64.767 E142.77481
G1 X92.138 Y64.861 E143.15447
G1 X92.819 Y65.127 E144.25113
G1 X93.665 Y65.495 E145.63499
G1 X94.553 Y65.92 E147.11168
G1 X95.409 Y66.368 E148.5609
G1 X95.62 Y66.49 E148.9265
G1 X96.223 Y66.831 E149.96561
G1 X97.062 Y67.348 E151.44386
G1 X97.859 Y67.881 E152.88206
G1 X98.058 Y68.027 E153.25228
G1 X98.643 Y68.447 E154.33252
G1 X99.389 Y69.027 E155.74993
G1 X100.147 Y69.66 E157.23125
G1 X100.843 Y70.285 E158.63441
G1 X101.541 Y70.959 E160.08986
G1 X102.215 Y71.657 E161.54531
G1 X102.84 Y72.353 E162.94846
G1 X103.473 Y73.111 E164.42978
G1 X104.056 Y73.861 E165.8547
G1 X104.619 Y74.643 E167.30007
G1 X105.16 Y75.451 E168.75866
G1 X105.653 Y76.249 E170.16567
G1 X105.779 Y76.474 E170.55248
G1 X106.129 Y77.085 E171.6087
G1 X106.58 Y77.947 E173.06798
G1 X107.005 Y78.835 E174.54468
G1 X107.369 Y79.674 E175.91651
G1 X107.733 Y80.597 E177.40479
G1 X108.042 Y81.473 E178.79814
G1 X108.335 Y82.406 E180.26503
G1 X108.401 Y82.653 E180.64853
G1 X108.592 Y83.345 E181.72534
G1 X108.816 Y84.29 E183.18212
G1 X109.001 Y85.223 E184.60886
G1 X109.153 Y86.159 E186.03126
G1 X109.273 Y87.118 E187.48097
G1 X109.36 Y88.093 E188.94928
G1 X109.409 Y89.014 E190.33274
G1 X109.427 Y90 E191.81198
G1 X109.409 Y90.986 E193.29123
G1 X109.36 Y91.907 E194.67469
G1 X109.273 Y92.874 E196.13104
G1 X109.153 Y93.838 E197.5882
G1 X109.113 Y94.074 E197.94725
G1 X108.999 Y94.786 E199.02886
G1 X108.816 Y95.71 E200.44178
G1 X108.591 Y96.659 E201.90474
G1 X108.336 Y97.587 E203.34834
G1 X108.046 Y98.516 E204.80815
G1 X107.733 Y99.403 E206.21906
G1 X107.639 Y99.638 E206.59871
G1 X107.373 Y100.319 E207.69537
G1 X107.005 Y101.165 E209.07923
G1 X106.58 Y102.053 E210.55593
G1 X106.132 Y102.909 E212.00515
G1 X106.01 Y103.12 E212.37075
G1 X105.669 Y103.723 E213.40986
G1 X105.152 Y104.562 E214.88811
G1 X104.619 Y105.359 E216.32631
G1 X104.473 Y105.558 E216.69653
G1 X104.053 Y106.143 E217.77676
G1 X103.473 Y106.889 E219.19418
G1 X102.84 Y107.647 E220.6755
G1 X102.215 Y108.343 E222.07865
G1 X101.541 Y109.041 E223.5341
G1 X100.843 Y109.715 E224.98955
G1 X100.147 Y110.34 E226.39271
G1 X99.389 Y110.973 E227.87403
G1 X98.639 Y111.556 E229.29894
G1 X97.857 Y112.119 E230.74432
G1 X97.049 Y112.66 E232.2029
G1 X96.251 Y113.153 E233.60991
G1 X96.026 Y113.279 E233.99673
G1 X95.415 Y113.629 E235.05295
G1 X94.553 Y114.08 E236.51223
G1 X93.665 Y114.505 E237.98892
G1 X92.826 Y114.869 E239.36076
G1 X91.903 Y115.233 E240.84903
G1 X91.027 Y115.542 E242.24239
G1 X90.094 Y115.835 E243.70927
G1 X89.847 Y115.901 E244.09277
G1 X89.155 Y116.092 E245.16958
G1 X88.21 Y116.316 E246.62636
G1 X87.277 Y116.501 E248.05311
G1 X86.341 Y116.653 E249.4755
G1 X85.382 Y116.773 E250.92522
G1 X84.407 Y116.86 E252.39353
G1 X83.486 Y116.909 E253.77698
G0 F3600 X83.286 Y116.912
G0 X83.286 Y116.812
G0 X83.333 Y111.92
;TYPE:SKIN
G1 F1800 X82.5 Y111.935 E255.02669
G1 X81.669 Y111.92 E256.27339
G1 X80.949 Y111.882 E257.35489
G1 X80.161 Y111.811 E258.54168
G1 X79.397 Y111.716 E259.69651
G1 X78.594 Y111.586 E260.91669
G1 X77.858 Y111.441 E262.04191
G1 X77.077 Y111.256 E263.24583
G1 X76.302 Y111.043 E264.45143
G1 X75.564 Y110.812 E265.6114
G1 X74.856 Y110.562 E266.73766
G1 X74.088 Y110.261 E267.97498
G1 X73.412 Y109.966 E269.08132
G1 X72.673 Y109.613 E270.3098
G1 X71.991 Y109.256 E271.46448
G1 X71.855 Y109.177 E271.7004
G1 X71.314 Y108.871 E272.63271
G1 X70.634 Y108.452 E273.8308
G1 X69.998 Y108.026 E274.97903
G1 X69.328 Y107.543 E276.21795
G1 X68.754 Y107.096 E277.30923
G1 X68.121 Y106.567 E278.54665
G1 X67.555 Y106.059 E279.68746
G1 X66.988 Y105.512 E280.86922
G1 X66.441 Y104.945 E282.05099
G1 X65.933 Y104.379 E283.1918
G1 X65.404 Y103.746 E284.42921
G1 X64.956 Y103.171 E285.52259
G1 X64.458 Y102.478 E286.80266
G1 X64.042 Y101.856 E287.9251
G1 X63.645 Y101.213 E289.05862
G1 X63.244 Y100.51 E290.27261
G1 X62.887 Y99.827 E291.42862
G1 X62.53 Y99.081 E292.66916
G1 X62.255 Y98.448 E293.70439
G1 X61.941 Y97.652 E294.98793
G1 X61.685 Y96.924 E296.14548
G1 X61.458 Y96.202 E297.28075
G1 X61.415 Y96.04 E297.53216
G1 X61.246 Y95.43 E298.48163
G1 X61.054 Y94.619 E299.73175
G1 X60.916 Y93.923 E300.79608
G1 X60.788 Y93.131 E301.99949
G1 X60.687 Y92.329 E303.21199
G1 X60.618 Y91.558 E304.37312
G1 X60.58 Y90.833 E305.46211
G1 X60.565 Y90 E306.71181
G1 X60.58 Y89.169 E307.95852
G1 X60.618 Y88.449 E309.04002
G1 X60.689 Y87.661 E310.22681
G1 X60.784 Y86.897 E311.38163
G1 X60.922 Y86.047 E312.67333
G1 X61.054 Y85.379 E313.6947
G1 X61.244 Y84.577 E314.931
G1 X61.457 Y83.802 E316.13661
G1 X61.688 Y83.064 E317.29657
G1 X61.938 Y82.356 E318.42283
G1 X62.239 Y81.588 E319.66015
G1 X62.534 Y80.912 E320.7665
G1 X62.887 Y80.173 E321.99497
G1 X63.244 Y79.491 E323.14965
G1 X63.323 Y79.355 E323.38557
G1 X63.629 Y78.814 E324.31789
G1 X64.048 Y78.134 E325.51597
G1 X64.474 Y77.498 E326.6642
G1 X64.957 Y76.828 E327.90313
G1 X65.404 Y76.254 E328.99441
G1 X65.933 Y75.621 E330.23182
G1 X66.441 Y75.055 E331.37263
G1 X66.988 Y74.488 E332.55439
G1 X67.555 Y73.941 E333.73616
G1 X68.121 Y73.433 E334.87697
G1 X68.754 Y72.904 E336.11438
G1 X69.329 Y72.456 E337.20777
G1 X70.014 Y71.964 E338.47284
G1 X70.644 Y71.542 E339.61025
G1 X71.287 Y71.145 E340.74378
G1 X71.99 Y70.744 E341.95777
G1 X72.673 Y70.387 E343.11378
G1 X73.419 Y70.03 E344.35431
G1 X74.062 Y69.751 E345.40569
G1 X74.824 Y69.45 E346.63464
G1 X75.585 Y69.182 E347.84485
G1 X76.298 Y68.958 E348.96589
G1 X76.46 Y68.915 E349.21731
G1 X77.07 Y68.746 E350.16677
G1 X77.881 Y68.554 E351.4169
G1 X78.577 Y68.416 E352.48122
G1 X79.369 Y68.288 E353.68464
G1 X80.171 Y68.187 E354.89714
G1 X80.942 Y68.118 E356.05826
G1 X81.667 Y68.08 E357.14725
G1 X82.5 Y68.065 E358.39696
G1 X83.331 Y68.08 E359.64366
G1 X84.051 Y68.118 E360.72516
G1 X84.839 Y68.189 E361.91195
G1 X85.603 Y68.284 E363.06678
G1 X86.406 Y68.414 E364.28696
G1 X87.142 Y68.559 E365.41218
G1 X87.923 Y68.744 E366.6161
G1 X88.698 Y68.957 E367.8217
G1 X89.436 Y69.188 E368.98167
G1 X90.144 Y69.438 E370.10793
G1 X90.912 Y69.739 E371.34525
G1 X91.588 Y70.034 E372.45159
G1 X92.327 Y70.387 E373.68007
G1 X93.009 Y70.744 E374.83475
G1 X93.145 Y70.823 E375.07067
G1 X93.686 Y71.129 E376.00298
G1 X94.366 Y71.548 E377.20107
G1 X95.002 Y71.974 E378.3493
G1 X95.672 Y72.457 E379.58822
G1 X96.246 Y72.904 E380.6795
G1 X96.879 Y73.433 E381.91692
G1 X97.445 Y73.941 E383.05773
G1 X98.012 Y74.488 E384.23949
G1 X98.559 Y75.055 E385.42126
G1 X99.067 Y75.621 E386.56207
G1 X99.596 Y76.254 E387.79948
G1 X100.044 Y76.829 E388.89286
G1 X100.536 Y77.514 E390.15793
G1 X100.958 Y78.144 E391.29535
G1 X101.355 Y78.787 E392.42887
G1 X101.756 Y79.49 E393.64287
G1 X102.113 Y80.173 E394.79888
G1 X102.466 Y80.91 E396.02464
G1 X102.748 Y81.559 E397.08607
G1 X103.05 Y82.324 E398.31975
G1 X103.318 Y83.085 E399.52997
G1 X103.542 Y83.798 E400.651
G1 X103.585 Y83.96 E400.90242
G1 X103.754 Y84.57 E401.85189
G1 X103.946 Y85.381 E403.10201
G1 X104.084 Y86.077 E404.16634
G1 X104.212 Y86.869 E405.36975
G1 X104.313 Y87.671 E406.58225
G1 X104.382 Y88.442 E407.74338
G1 X104.42 Y89.167 E408.83237
G1 X104.435 Y90 E410.08207
G1 X104.42 Y90.831 E411.32877
G1 X104.382 Y91.551 E412.41028
G1 X104.311 Y92.339 E413.59707
G1 X104.216 Y93.103 E414.75189
G1 X104.086 Y93.906 E415.97207
G1 X103.941 Y94.642 E417.09729
G1 X103.756 Y95.423 E418.30121
G1 X103.543 Y96.198 E419.50682
G1 X103.326 Y96.893 E420.59895
G1 X103.056 Y97.659 E421.81724
G1 X102.761 Y98.411 E423.02893
G1 X102.466 Y99.088 E424.13665
G1 X102.113 Y99.827 E425.36512
G1 X101.756 Y100.509 E426.5198
G1 X101.677 Y100.645 E426.75572
G1 X101.371 Y101.186 E427.68804
G1 X100.952 Y101.866 E428.88613
G1 X100.526 Y102.502 E430.03436
G1 X100.043 Y103.172 E431.27328
G1 X99.596 Y103.746 E432.36456
G1 X99.067 Y104.379 E433.60197
G1 X98.559 Y104.945 E434.74278
G1 X98.012 Y105.512 E435.92455
G1 X97.445 Y106.059 E437.10631
G1 X96.879 Y106.567 E438.24712
G1 X96.246 Y107.096 E439.48454
G1 X95.671 Y107.544 E440.57792
G1 X94.986 Y108.036 E441.84299
G1 X94.356 Y108.458 E442.98041
G1 X93.713 Y108.855 E444.11393
G1 X93.01 Y109.256 E445.32792
G1 X92.327 Y109.613 E446.48393
G1 X91.581 Y109.97 E447.72447
G1 X90.938 Y110.249 E448.77585
G1 X90.176 Y110.55 E450.00479
G1 X89.415 Y110.818 E451.21501
G1 X88.702 Y111.042 E452.33605
G1 X88.54 Y111.085 E452.58746
G1 X87.93 Y111.254 E453.53693
G1 X87.119 Y111.446 E454.78705
G1 X86.423 Y111.584 E455.85138
G1 X85.631 Y111.712 E457.05479
G1 X84.829 Y111.813 E458.26729
G1 X84.058 Y111.882 E459.42842
G1 X83.333 Y111.92 E460.51741
G0 F3600 X81.365 Y109.649
G1 F1800 X62.848 Y91.132 E499.7979
G0 F3600 X63.531 Y84.744
G1 F1800 X87.753 Y108.966 E551.18052
G0 F3600 X92.695 Y106.837
G1 F1800 X65.66 Y79.802 E608.53041
G0 F3600 X68.797 Y75.869
G1 F1800 X96.631 Y103.702 E667.57418
G0 F3600 X99.652 Y99.652
G1 F1800 X72.846 Y72.846 E724.4383
G0 F3600 X77.927 Y70.856
G1 F1800 X101.644 Y94.573 E774.74965
G0 F3600 X102.077 Y87.935
G1 F1800 X84.565 Y70.422 E811.89927
G1 X83.682 Y69.539
;MESH:NONMESH
G0 F600 X83.682 Y69.539 Z1.8
G0 F3600 X83.483 Y116.81
G0 X83.503 Y118.08
;TIME_ELAPSED:23.968647
;LAYER:1
M106 S255
;TYPE:WALL-OUTER
;MESH:Vaza_zakljucna.STL
G1 F1800 X82.5 Y118.097 E819.42286
G1 X81.478 Y118.079 E827.08904
G1 X80.502 Y118.027 E834.41943
G1 X79.511 Y117.938 E841.88184
G1 X78.496 Y117.811 E849.5537
G1 X77.508 Y117.651 E857.06023
G1 X76.433 Y117.435 E865.28388
G1 X75.559 Y117.227 E872.02195
G1 X74.581 Y116.959 E879.62736
G1 X73.627 Y116.66 E887.12555
G1 X72.696 Y116.332 E894.52872
G1 X71.732 Y115.953 E902.29742
G1 X70.816 Y115.554 E909.79088
G1 X69.947 Y115.138 E917.01668
G1 X69.024 Y114.654 E924.8332
G1 X68.168 Y114.168 E932.21578
G1 X67.3 Y113.632 E939.86695
G1 X66.481 Y113.085 E947.25348
G1 X65.66 Y112.492 E954.84921
G1 X64.878 Y111.885 E962.27373
G1 X64.088 Y111.224 E969.99917
G1 X63.358 Y110.569 E977.355
G1 X62.632 Y109.868 E984.92397
G1 X61.931 Y109.142 E992.49294
G1 X61.276 Y108.412 E999.84878
G1 X60.615 Y107.622 E1007.57422
G1 X60.008 Y106.84 E1014.99874
G1 X59.415 Y106.019 E1022.59446
G1 X58.832 Y105.144 E1030.48022
G1 X58.307 Y104.29 E1037.99873
G1 X57.808 Y103.408 E1045.59902
G1 X57.363 Y102.556 E1052.80812
G1 X56.946 Y101.684 E1060.05745
G1 X56.538 Y100.747 E1067.72226
G1 X56.174 Y99.82 E1075.19154
G1 X55.826 Y98.832 E1083.04776
G1 X55.541 Y97.919 E1090.22113
G1 X55.271 Y96.935 E1097.87391
G1 X55.043 Y95.967 E1105.33257
G1 X54.849 Y94.992 E1112.78842
G1 X54.689 Y94.004 E1120.29496
G1 X54.562 Y92.989 E1127.96682
G1 X54.47 Y91.95 E1135.78981
G1 X54.42 Y91.003 E1142.9022
G1 X54.403 Y90 E1150.42578
G1 X54.421 Y88.978 E1158.09197
G1 X54.473 Y88.002 E1165.42235
G1 X54.562 Y87.011 E1172.88477
G1 X54.689 Y85.996 E1180.55662
G1 X54.849 Y85.008 E1188.06316
G1 X55.043 Y84.033 E1195.51901
G1 X55.065 Y83.933 E1196.28695
G1 X55.276 Y83.045 E1203.13237
G1 X55.541 Y82.081 E1210.63058
G1 X55.84 Y81.127 E1218.12877
G1 X56.168 Y80.196 E1225.53194
G1 X56.547 Y79.232 E1233.30064
G1 X56.946 Y78.316 E1240.7941
G1 X57.362 Y77.447 E1248.0199
G1 X57.846 Y76.524 E1255.83641
G1 X58.338 Y75.659 E1263.29991
G1 X58.868 Y74.8 E1270.87001
G1 X59.415 Y73.981 E1278.25654
G1 X60.008 Y73.16 E1285.85226
G1 X60.615 Y72.378 E1293.27678
G1 X61.276 Y71.588 E1301.00222
G1 X61.931 Y70.858 E1308.35806
G1 X62.632 Y70.132 E1315.92703
G1 X63.358 Y69.431 E1323.496
G1 X64.088 Y68.776 E1330.85183
G1 X64.878 Y68.115 E1338.57727
G1 X65.66 Y67.508 E1346.00179
G1 X66.481 Y66.915 E1353.59752
G1 X67.355 Y66.333 E1361.47288
G1 X68.208 Y65.808 E1368.98499
G1 X69.082 Y65.313 E1376.5183
G1 X69.944 Y64.863 E1383.81123
G1 X70.816 Y64.446 E1391.06057
G1 X71.753 Y64.038 E1398.72538
G1 X72.68 Y63.674 E1406.19466
G1 X73.693 Y63.318 E1414.24767
G1 X74.581 Y63.041 E1421.22417
G1 X75.623 Y62.756 E1429.32621
G1 X76.525 Y62.545 E1436.27384
G1 X77.508 Y62.349 E1443.79147
G1 X78.496 Y62.189 E1451.298
G1 X79.511 Y62.062 E1458.96986
G1 X80.55 Y61.97 E1466.79285
G1 X81.497 Y61.92 E1473.90524
G1 X82.5 Y61.903 E1481.42882
G1 X83.522 Y61.921 E1489.09501
G1 X84.498 Y61.973 E1496.42539
G1 X85.489 Y62.062 E1503.88781
G1 X86.504 Y62.189 E1511.55967
G1 X87.492 Y62.349 E1519.0662
G1 X88.567 Y62.565 E1527.28985
G1 X89.441 Y62.773 E1534.02792
G1 X90.419 Y63.041 E1541.63333
G1 X91.373 Y63.34 E1549.13152
G1 X92.304 Y63.668 E1556.53469
G1 X93.268 Y64.047 E1564.30339
G1 X94.184 Y64.446 E1571.79685
G1 X95.053 Y64.862 E1579.02265
G1 X95.968 Y65.341 E1586.76862
G1 X96.832 Y65.832 E1594.22189
G1 X97.694 Y66.365 E1601.82295
G1 X98.519 Y66.915 E1609.2594
G1 X99.34 Y67.508 E1616.85513
G1 X100.122 Y68.115 E1624.27965
G1 X100.912 Y68.776 E1632.00509
G1 X101.642 Y69.431 E1639.36092
G1 X102.368 Y70.132 E1646.92989
G1 X103.069 Y70.858 E1654.49886
G1 X103.724 Y71.588 E1661.8547
G1 X104.385 Y72.378 E1669.58014
G1 X104.992 Y73.16 E1677.00466
G1 X105.585 Y73.981 E1684.60038
G1 X106.167 Y74.855 E1692.47574
G1 X106.692 Y75.708 E1699.98786
G1 X107.187 Y76.582 E1707.52116
G1 X107.637 Y77.444 E1714.8141
G1 X108.054 Y78.316 E1722.06343
G1 X108.456 Y79.239 E1729.61401
G1 X108.495 Y79.334 E1730.38421
G1 X108.826 Y80.18 E1737.19757
G1 X109.178 Y81.181 E1745.15572
G1 X109.459 Y82.081 E1752.22707
G1 X109.739 Y83.103 E1760.17454
G1 X109.955 Y84.025 E1767.27677
G1 X110.151 Y85.008 E1774.79439
G1 X110.311 Y85.996 E1782.30093
G1 X110.438 Y87.011 E1789.97278
G1 X110.53 Y88.05 E1797.79577
G1 X110.58 Y88.997 E1804.90817
G1 X110.597 Y90 E1812.43175
G1 X110.579 Y91.022 E1820.09794
G1 X110.527 Y91.998 E1827.42832
G1 X110.438 Y92.989 E1834.89073
G1 X110.311 Y94.004 E1842.56259
G1 X110.151 Y94.992 E1850.06913
G1 X109.957 Y95.967 E1857.52498
G1 X109.935 Y96.067 E1858.29291
G1 X109.727 Y96.941 E1865.03098
G1 X109.459 Y97.919 E1872.6364
G1 X109.16 Y98.873 E1880.13459
G1 X108.84 Y99.782 E1887.36219
G1 X108.453 Y100.768 E1895.30641
G1 X108.054 Y101.684 E1902.79987
G1 X107.638 Y102.553 E1910.02567
G1 X107.154 Y103.476 E1917.84218
G1 X106.668 Y104.332 E1925.22476
G1 X106.132 Y105.2 E1932.87594
G1 X105.585 Y106.019 E1940.26247
G1 X104.992 Y106.84 E1947.85819
G1 X104.385 Y107.622 E1955.28271
G1 X103.724 Y108.412 E1963.00815
G1 X103.069 Y109.142 E1970.36399
G1 X102.368 Y109.868 E1977.93296
G1 X101.642 Y110.569 E1985.50193
G1 X100.912 Y111.224 E1992.85776
G1 X100.122 Y111.885 E2000.5832
G1 X99.34 Y112.492 E2008.00772
G1 X98.519 Y113.085 E2015.60345
G1 X97.645 Y113.667 E2023.4788
G1 X96.792 Y114.192 E2030.99092
G1 X95.918 Y114.687 E2038.52423
G1 X95.056 Y115.137 E2045.81716
G1 X94.184 Y115.554 E2053.06649
G1 X93.247 Y115.962 E2060.73131
G1 X92.32 Y116.326 E2068.20059
G1 X91.307 Y116.682 E2076.25359
G1 X90.419 Y116.959 E2083.2301
G1 X89.377 Y117.244 E2091.33214
G1 X88.475 Y117.455 E2098.27977
G1 X87.492 Y117.651 E2105.79739
G1 X86.504 Y117.811 E2113.30393
G1 X85.489 Y117.938 E2120.97579
G1 X84.45 Y118.03 E2128.79878
G1 X83.503 Y118.08 E2135.91117
G0 F5400 X83.303 Y118.083
G0 X83.303 Y117.983
G0 X83.346 Y113.091
;TYPE:SKIN
G1 F1800 X82.505 Y113.105 E2142.21954
G1 X81.634 Y113.09 E2148.75301
G1 X80.861 Y113.049 E2154.55866
G1 X80.056 Y112.976 E2160.62094
G1 X79.191 Y112.868 E2167.15881
G1 X78.391 Y112.739 E2173.23631
G1 X77.515 Y112.563 E2179.9376
G1 X76.775 Y112.387 E2185.64242
G1 X76.016 Y112.179 E2191.5448
G1 X75.194 Y111.921 E2198.00634
G1 X74.451 Y111.659 E2203.91514
G1 X73.617 Y111.331 E2210.6365
G1 X72.901 Y111.02 E2216.49119
G1 X72.179 Y110.674 E2222.49588
G1 X71.395 Y110.263 E2229.13487
G1 X70.728 Y109.884 E2234.88855
G1 X69.992 Y109.429 E2241.3782
G1 X69.327 Y108.985 E2247.3752
G1 X68.659 Y108.502 E2253.55765
G1 X67.998 Y107.99 E2259.8284
G1 X67.368 Y107.462 E2265.9934
G1 X66.756 Y106.913 E2272.15959
G1 X66.161 Y106.339 E2278.36015
G1 X65.587 Y105.744 E2284.56071
G1 X65.038 Y105.132 E2290.7269
G1 X64.51 Y104.502 E2296.8919
G1 X64 Y103.844 E2303.13569
G1 X63.491 Y103.139 E2309.65727
G1 X63.04 Y102.462 E2315.75827
G1 X62.621 Y101.779 E2321.76788
G1 X62.181 Y101.002 E2328.46487
G1 X61.831 Y100.333 E2334.12755
G1 X61.487 Y99.612 E2340.119
G1 X61.147 Y98.83 E2346.51437
G1 X60.851 Y98.078 E2352.57555
G1 X60.554 Y97.233 E2359.29312
G1 X60.33 Y96.515 E2364.9341
G1 X60.106 Y95.699 E2371.2805
G1 X59.917 Y94.895 E2377.47487
G1 X59.76 Y94.105 E2383.51574
G1 X59.633 Y93.317 E2389.502
G1 X59.519 Y92.406 E2396.38779
G1 X59.45 Y91.614 E2402.35029
G1 X59.409 Y90.846 E2408.11849
G1 X59.395 Y89.998 E2414.47936
G1 X59.411 Y89.088 E2421.30541
G1 X59.449 Y88.388 E2426.56314
G1 X59.524 Y87.556 E2432.82844
G1 X59.632 Y86.686 E2439.40353
G1 X59.76 Y85.896 E2445.4058
G1 X59.93 Y85.045 E2451.9144
G1 X60.107 Y84.297 E2457.67933
G1 X60.329 Y83.49 E2463.95666
G1 X60.579 Y82.694 E2470.21418
G1 X60.845 Y81.941 E2476.2037
G1 X61.161 Y81.134 E2482.70367
G1 X61.485 Y80.392 E2488.77608
G1 X61.827 Y79.677 E2494.72045
G1 X62.232 Y78.904 E2501.26548
G1 X62.619 Y78.223 E2507.1401
G1 X63.067 Y77.498 E2513.53197
G1 X63.519 Y76.82 E2519.64338
G1 X63.998 Y76.159 E2525.7657
G1 X64.51 Y75.498 E2532.03646
G1 X65.038 Y74.868 E2538.20146
G1 X65.587 Y74.256 E2544.36765
G1 X66.161 Y73.661 E2550.56821
G1 X66.756 Y73.087 E2556.76877
G1 X67.368 Y72.538 E2562.93496
G1 X67.998 Y72.01 E2569.09996
G1 X68.646 Y71.508 E2575.24771
G1 X69.336 Y71.008 E2581.63857
G1 X70.046 Y70.536 E2588.03288
G1 X70.753 Y70.101 E2594.25867
G1 X71.475 Y69.692 E2600.48215
G1 X72.164 Y69.332 E2606.31251
G1 X72.888 Y68.987 E2612.3275
G1 X73.672 Y68.646 E2618.73961
G1 X74.42 Y68.351 E2624.77014
G1 X75.256 Y68.058 E2631.41408
G1 X76.008 Y67.823 E2637.32305
G1 X76.833 Y67.598 E2643.73654
G1 X77.567 Y67.426 E2649.39066
G1 X78.413 Y67.257 E2655.86103
G1 X79.183 Y67.133 E2661.71043
G1 X80.074 Y67.021 E2668.44552
G1 X80.886 Y66.95 E2674.55875
G1 X81.654 Y66.909 E2680.32696
G1 X82.495 Y66.895 E2686.63533
G1 X83.366 Y66.91 E2693.1688
G1 X84.139 Y66.951 E2698.97445
G1 X84.944 Y67.024 E2705.03672
G1 X85.809 Y67.132 E2711.57459
G1 X86.609 Y67.261 E2717.6521
G1 X87.485 Y67.437 E2724.35339
G1 X88.225 Y67.613 E2730.0582
G1 X88.984 Y67.821 E2735.96059
G1 X89.806 Y68.079 E2742.42212
G1 X90.559 Y68.345 E2748.41164
G1 X91.36 Y68.659 E2754.86424
G1 X92.108 Y68.985 E2760.98389
G1 X92.815 Y69.323 E2766.8612
G1 X93.58 Y69.723 E2773.33568
G1 X94.287 Y70.125 E2779.43541
G1 X94.976 Y70.551 E2785.51086
G1 X95.67 Y71.014 E2791.76788
G1 X96.347 Y71.502 E2798.027
G1 X97.002 Y72.01 E2804.24381
G1 X97.632 Y72.538 E2810.40881
G1 X98.244 Y73.087 E2816.575
G1 X98.839 Y73.661 E2822.77556
G1 X99.413 Y74.256 E2828.97612
G1 X99.962 Y74.868 E2835.14231
G1 X100.49 Y75.498 E2841.30731
G1 X100.992 Y76.146 E2847.45506
G1 X101.492 Y76.836 E2853.84592
G1 X101.969 Y77.554 E2860.31096
G1 X102.387 Y78.232 E2866.28469
G1 X102.795 Y78.953 E2872.49796
G1 X103.173 Y79.677 E2878.62349
G1 X103.515 Y80.392 E2884.56786
G1 X103.862 Y81.188 E2891.08046
G1 X104.157 Y81.945 E2897.17383
G1 X104.433 Y82.725 E2903.37926
G1 X104.674 Y83.499 E2909.45916
G1 X104.897 Y84.313 E2915.78911
G1 X105.067 Y85.033 E2921.33759
G1 X105.244 Y85.918 E2928.10654
G1 X105.367 Y86.683 E2933.91772
G1 X105.479 Y87.574 E2940.65281
G1 X105.55 Y88.386 E2946.76605
G1 X105.591 Y89.154 E2952.53425
G1 X105.605 Y89.995 E2958.84262
G1 X105.59 Y90.866 E2965.37609
G1 X105.549 Y91.639 E2971.18174
G1 X105.476 Y92.444 E2977.24402
G1 X105.368 Y93.314 E2983.8191
G1 X105.24 Y94.104 E2989.82137
G1 X105.07 Y94.954 E2996.32262
G1 X104.886 Y95.729 E3002.29669
G1 X104.679 Y96.484 E3008.16816
G1 X104.415 Y97.326 E3014.78629
G1 X104.169 Y98.023 E3020.32982
G1 X103.836 Y98.872 E3027.1696
G1 X103.524 Y99.59 E3033.04104
G1 X103.174 Y100.321 E3039.11957
G1 X102.763 Y101.105 E3045.75856
G1 X102.388 Y101.765 E3051.45177
G1 X101.929 Y102.508 E3058.00185
G1 X101.485 Y103.173 E3063.99885
G1 X101.002 Y103.841 E3070.1813
G1 X100.49 Y104.502 E3076.45206
G1 X99.962 Y105.132 E3082.61706
G1 X99.413 Y105.744 E3088.78325
G1 X98.839 Y106.339 E3094.9838
G1 X98.244 Y106.913 E3101.18436
G1 X97.632 Y107.462 E3107.35055
G1 X97.002 Y107.99 E3113.51555
G1 X96.354 Y108.492 E3119.6633
G1 X95.664 Y108.992 E3126.05417
G1 X94.96 Y109.46 E3132.3944
G1 X94.251 Y109.896 E3138.63689
G1 X93.543 Y110.297 E3144.73944
G1 X92.823 Y110.673 E3150.83144
G1 X92.112 Y111.013 E3156.74228
G1 X91.333 Y111.352 E3163.11402
G1 X90.58 Y111.649 E3169.18494
G1 X89.744 Y111.942 E3175.82887
G1 X88.992 Y112.177 E3181.73785
G1 X88.167 Y112.402 E3188.15134
G1 X87.433 Y112.574 E3193.80546
G1 X86.587 Y112.743 E3200.27582
G1 X85.817 Y112.867 E3206.12523
G1 X84.926 Y112.979 E3212.86031
G1 X84.114 Y113.05 E3218.97355
G1 X83.346 Y113.091 E3224.74175
G0 F5400 X87.829 Y110.16
G1 F1800 X102.661 Y95.328 E3382.05887
G0 F5400 X103.225 Y87.693
G1 F1800 X80.192 Y110.725 E3626.35542
G0 F5400 X74.563 Y109.284
G1 F1800 X101.786 Y82.061 E3915.09894
G0 F5400 X99.228 Y77.548
G1 F1800 X70.048 Y106.728 E4224.59958
G0 F5400 X66.423 Y103.282
G1 F1800 X95.782 Y73.923 E4535.9988
G0 F5400 X91.464 Y71.169
G1 F1800 X63.67 Y98.963 E4830.79869
G0 F5400 X61.958 Y93.604
G1 F1800 X86.105 Y69.457 E5086.9163
G0 F5400 X79.062 Y69.43
G1 F1800 X61.931 Y86.56 E5268.61269
G1 X61.048 Y87.443
;MESH:NONMESH
G0 F600 X61.048 Y87.443 Z3.3
G0 F5400 X83.5 Y117.981
G0 X83.582 Y119.729
;TIME_ELAPSED:45.304148
;LAYER:2
;TYPE:WALL-OUTER
;MESH:Vaza_zakljucna.STL
G1 F1800 X82.496 Y119.748 E5276.75894
G1 X81.416 Y119.729 E5284.86019
G1 X80.382 Y119.674 E5292.62615
G1 X79.314 Y119.579 E5300.66778
G1 X78.285 Y119.449 E5308.44663
G1 X77.213 Y119.275 E5316.59185
G1 X76.572 Y119.149 E5321.49134
G1 X76.177 Y119.069 E5324.51399
G1 X75.133 Y118.822 E5332.56015
G1 X74.131 Y118.548 E5340.35106
G1 X73.104 Y118.226 E5348.42328
G1 X72.111 Y117.876 E5356.31985
G1 X71.101 Y117.479 E5364.45903
G1 X70.142 Y117.061 E5372.30506
G1 X69.175 Y116.598 E5380.34602
G1 X68.242 Y116.109 E5388.24637
G1 X67.341 Y115.597 E5396.01872
G1 X66.409 Y115.021 E5404.23593
G1 X65.546 Y114.445 E5412.01768
G1 X64.637 Y113.789 E5420.4251
G1 X63.84 Y113.17 E5427.99367
G1 X63.034 Y112.495 E5435.87853
G1 X62.222 Y111.766 E5444.06276
G1 X61.465 Y111.035 E5451.95528
G1 X60.734 Y110.278 E5459.84779
G1 X60.005 Y109.466 E5468.03203
G1 X59.33 Y108.66 E5475.91688
G1 X58.706 Y107.856 E5483.54992
G1 X58.055 Y106.954 E5491.89282
G1 X57.479 Y106.091 E5499.67457
G1 X56.903 Y105.159 E5507.89178
G1 X56.391 Y104.258 E5515.66413
G1 X55.906 Y103.333 E5523.49741
G1 X55.612 Y102.722 E5528.58282
G1 X55.439 Y102.357 E5531.61224
G1 X55.021 Y101.399 E5539.4514
G1 X54.624 Y100.389 E5547.59058
G1 X54.274 Y99.396 E5555.48715
G1 X53.957 Y98.383 E5563.44796
G1 X53.679 Y97.37 E5571.32636
G1 X53.432 Y96.324 E5579.38712
G1 X53.223 Y95.279 E5587.37983
G1 X53.051 Y94.215 E5595.46343
G1 X52.921 Y93.186 E5603.24227
G1 X52.826 Y92.118 E5611.2839
G1 X52.771 Y91.082 E5619.06484
G1 X52.752 Y90 E5627.18109
G1 X52.771 Y88.918 E5635.29734
G1 X52.826 Y87.882 E5643.07828
G1 X52.921 Y86.814 E5651.11991
G1 X53.051 Y85.785 E5658.89876
G1 X53.225 Y84.713 E5667.04398
G1 X53.348 Y84.086 E5671.83611
G1 X53.431 Y83.677 E5674.96613
G1 X53.678 Y82.633 E5683.01229
G1 X53.952 Y81.631 E5690.8032
G1 X54.274 Y80.604 E5698.87542
G1 X54.624 Y79.611 E5706.77199
G1 X55.021 Y78.601 E5714.91117
G1 X55.439 Y77.642 E5722.7572
G1 X55.902 Y76.675 E5730.79816
G1 X56.391 Y75.742 E5738.69851
G1 X56.903 Y74.841 E5746.47086
G1 X57.479 Y73.909 E5754.68807
G1 X58.055 Y73.046 E5762.46982
G1 X58.711 Y72.137 E5770.87724
G1 X59.33 Y71.34 E5778.44581
G1 X60.005 Y70.534 E5786.33067
G1 X60.734 Y69.722 E5794.5149
G1 X61.465 Y68.965 E5802.40742
G1 X62.222 Y68.234 E5810.29993
G1 X63.034 Y67.505 E5818.48416
G1 X63.84 Y66.83 E5826.36902
G1 X64.637 Y66.211 E5833.93759
G1 X65.546 Y65.555 E5842.34501
G1 X66.409 Y64.979 E5850.12676
G1 X67.341 Y64.403 E5858.34397
G1 X68.242 Y63.891 E5866.11632
G1 X69.167 Y63.406 E5873.9496
G1 X69.778 Y63.112 E5879.03501
G1 X70.143 Y62.939 E5882.06443
G1 X71.101 Y62.521 E5889.90359
G1 X72.111 Y62.124 E5898.04277
G1 X73.104 Y61.774 E5905.93934
G1 X74.117 Y61.457 E5913.90015
G1 X75.13 Y61.179 E5921.77855
G1 X76.176 Y60.932 E5929.83931
G1 X77.221 Y60.723 E5937.83202
G1 X78.285 Y60.551 E5945.91562
G1 X79.314 Y60.421 E5953.69446
G1 X80.382 Y60.326 E5961.73609
G1 X81.418 Y60.271 E5969.51703
G1 X82.5 Y60.252 E5977.63328
G1 X83.582 Y60.271 E5985.74953
G1 X84.618 Y60.326 E5993.53047
G1 X85.686 Y60.421 E6001.5721
G1 X86.715 Y60.551 E6009.35095
G1 X87.787 Y60.725 E6017.49617
G1 X88.428 Y60.851 E6022.39566
G1 X88.823 Y60.931 E6025.41831
G1 X89.867 Y61.178 E6033.46447
G1 X90.869 Y61.452 E6041.25538
G1 X91.896 Y61.774 E6049.3276
G1 X92.889 Y62.124 E6057.22417
G1 X93.899 Y62.521 E6065.36335
G1 X94.858 Y62.939 E6073.20938
G1 X95.825 Y63.402 E6081.25034
G1 X96.758 Y63.891 E6089.15069
G1 X97.659 Y64.403 E6096.92304
G1 X98.591 Y64.979 E6105.14025
G1 X99.454 Y65.555 E6112.922
G1 X100.363 Y66.211 E6121.32942
G1 X101.16 Y66.83 E6128.89799
G1 X101.966 Y67.505 E6136.78285
G1 X102.778 Y68.234 E6144.96708
G1 X103.535 Y68.965 E6152.8596
G1 X104.266 Y69.722 E6160.75211
G1 X104.995 Y70.534 E6168.93635
G1 X105.67 Y71.34 E6176.8212
G1 X106.289 Y72.137 E6184.38977
G1 X106.945 Y73.046 E6192.79719
G1 X107.521 Y73.909 E6200.57894
G1 X108.097 Y74.841 E6208.79615
G1 X108.609 Y75.742 E6216.5685
G1 X109.094 Y76.667 E6224.40178
G1 X109.382 Y77.265 E6229.37982
G1 X109.561 Y77.643 E6232.51662
G1 X109.979 Y78.601 E6240.35578
G1 X110.376 Y79.611 E6248.49495
G1 X110.726 Y80.604 E6256.39153
G1 X111.043 Y81.617 E6264.35234
G1 X111.215 Y82.237 E6269.17796
G1 X111.321 Y82.63 E6272.23079
G1 X111.568 Y83.676 E6280.29155
G1 X111.777 Y84.721 E6288.28426
G1 X111.949 Y85.785 E6296.36785
G1 X112.079 Y86.814 E6304.1467
G1 X112.174 Y87.882 E6312.18833
G1 X112.229 Y88.918 E6319.96927
G1 X112.248 Y90 E6328.08552
G1 X112.229 Y91.082 E6336.20177
G1 X112.174 Y92.118 E6343.98271
G1 X112.079 Y93.186 E6352.02434
G1 X111.949 Y94.215 E6359.80318
G1 X111.775 Y95.287 E6367.9484
G1 X111.652 Y95.914 E6372.74053
G1 X111.569 Y96.323 E6375.87056
G1 X111.322 Y97.367 E6383.91672
G1 X111.048 Y98.369 E6391.70763
G1 X110.726 Y99.396 E6399.77985
G1 X110.376 Y100.389 E6407.67642
G1 X109.979 Y101.399 E6415.81559
G1 X109.561 Y102.358 E6423.66163
G1 X109.098 Y103.325 E6431.70259
G1 X108.609 Y104.258 E6439.60294
G1 X108.097 Y105.159 E6447.37529
G1 X107.521 Y106.091 E6455.5925
G1 X106.945 Y106.954 E6463.37425
G1 X106.294 Y107.856 E6471.71715
G1 X105.67 Y108.66 E6479.35019
G1 X104.995 Y109.466 E6487.23504
G1 X104.266 Y110.278 E6495.41928
G1 X103.535 Y111.035 E6503.31179
G1 X102.778 Y111.766 E6511.20431
G1 X101.966 Y112.495 E6519.38854
G1 X101.16 Y113.17 E6527.2734
G1 X100.363 Y113.789 E6534.84197
G1 X99.454 Y114.445 E6543.24939
G1 X98.591 Y115.021 E6551.03114
G1 X97.659 Y115.597 E6559.24835
G1 X96.758 Y116.109 E6567.0207
G1 X95.833 Y116.594 E6574.85398
G1 X95.222 Y116.888 E6579.93938
G1 X94.857 Y117.061 E6582.96881
G1 X93.899 Y117.479 E6590.80797
G1 X92.889 Y117.876 E6598.94714
G1 X91.896 Y118.226 E6606.84372
G1 X90.883 Y118.543 E6614.80453
G1 X89.87 Y118.821 E6622.68293
G1 X88.824 Y119.068 E6630.74369
G1 X87.779 Y119.277 E6638.7364
G1 X86.715 Y119.449 E6646.81999
G1 X85.686 Y119.579 E6654.59884
G1 X84.618 Y119.674 E6662.64046
G1 X83.582 Y119.729 E6670.42141
G0 F7200 X83.382 Y119.732
G0 X83.382 Y119.632
G0 X83.429 Y114.74
;TYPE:SKIN
G1 F1800 X82.496 Y114.756 E6677.41994
G1 X81.57 Y114.74 E6684.36597
G1 X80.725 Y114.695 E6690.71245
G1 X79.843 Y114.617 E6697.35327
G1 X79.034 Y114.515 E6703.4688
G1 X78.086 Y114.36 E6710.67321
G1 X77.257 Y114.196 E6717.01121
G1 X76.347 Y113.981 E6724.02411
G1 X75.541 Y113.761 E6730.29025
G1 X74.694 Y113.495 E6736.94865
G1 X73.862 Y113.203 E6743.5618
G1 X73.004 Y112.865 E6750.47812
G1 X72.222 Y112.524 E6756.87648
G1 X71.404 Y112.132 E6763.67955
G1 X70.64 Y111.732 E6770.14739
G1 X69.892 Y111.307 E6776.59969
G1 X69.082 Y110.806 E6783.74283
G1 X68.394 Y110.347 E6789.94577
G1 X67.625 Y109.792 E6797.05847
G1 X66.994 Y109.302 E6803.05031
G1 X66.28 Y108.705 E6810.03057
G1 X65.637 Y108.127 E6816.51507
G1 X64.994 Y107.506 E6823.21946
G1 X64.373 Y106.863 E6829.92384
G1 X63.781 Y106.204 E6836.56778
G1 X63.214 Y105.527 E6843.19083
G1 X62.701 Y104.865 E6849.47211
G1 X62.153 Y104.106 E6856.49327
G1 X61.694 Y103.418 E6862.6962
G1 X61.199 Y102.617 E6869.75826
G1 X60.763 Y101.85 E6876.37522
G1 X60.366 Y101.092 E6882.79276
G1 X60.108 Y100.557 E6887.24746
G1 X59.985 Y100.297 E6889.40466
G1 X59.632 Y99.489 E6896.01774
G1 X59.304 Y98.656 E6902.73212
G1 X59.009 Y97.818 E6909.39518
G1 X58.748 Y96.983 E6915.95648
G1 X58.51 Y96.116 E6922.69953
G1 X58.301 Y95.229 E6929.53421
G1 X58.139 Y94.419 E6935.72952
G1 X57.988 Y93.485 E6942.82547
G1 X57.883 Y92.657 E6949.08521
G1 X57.805 Y91.776 E6955.71855
G1 X57.76 Y90.929 E6962.08001
G1 X57.744 Y90 E6969.04855
G1 X57.76 Y89.071 E6976.01708
G1 X57.805 Y88.224 E6982.37854
G1 X57.883 Y87.343 E6989.01188
G1 X57.985 Y86.534 E6995.12742
G1 X58.141 Y85.578 E7002.39225
G1 X58.241 Y85.062 E7006.33426
G1 X58.302 Y84.764 E7008.6156
G1 X58.526 Y83.82 E7015.89219
G1 X58.739 Y83.041 E7021.94916
G1 X59.005 Y82.194 E7028.60756
G1 X59.297 Y81.362 E7035.2207
G1 X59.64 Y80.492 E7042.2345
G1 X59.976 Y79.722 E7048.53538
G1 X60.368 Y78.904 E7055.33845
G1 X60.768 Y78.14 E7061.80629
G1 X61.193 Y77.392 E7068.25859
G1 X61.694 Y76.582 E7075.40173
G1 X62.153 Y75.894 E7081.60467
G1 X62.708 Y75.125 E7088.71737
G1 X63.198 Y74.494 E7094.70921
G1 X63.795 Y73.78 E7101.68947
G1 X64.373 Y73.137 E7108.17397
G1 X64.994 Y72.494 E7114.87836
G1 X65.637 Y71.873 E7121.58274
G1 X66.28 Y71.295 E7128.06724
G1 X66.994 Y70.698 E7135.0475
G1 X67.625 Y70.208 E7141.03935
G1 X68.394 Y69.653 E7148.15204
G1 X69.082 Y69.194 E7154.35498
G1 X69.883 Y68.699 E7161.41704
G1 X70.65 Y68.263 E7168.034
G1 X71.408 Y67.866 E7174.45153
G1 X71.928 Y67.615 E7178.7821
G1 X72.203 Y67.485 E7181.06344
G1 X73.011 Y67.132 E7187.67653
G1 X73.844 Y66.804 E7194.3909
G1 X74.682 Y66.509 E7201.05396
G1 X75.517 Y66.248 E7207.61527
G1 X76.375 Y66.012 E7214.28926
G1 X77.271 Y65.801 E7221.19307
G1 X78.081 Y65.639 E7227.38838
G1 X79.015 Y65.488 E7234.48434
G1 X79.843 Y65.383 E7240.74407
G1 X80.724 Y65.305 E7247.37742
G1 X81.571 Y65.26 E7253.73888
G1 X82.5 Y65.244 E7260.70741
G1 X83.429 Y65.26 E7267.67594
G1 X84.276 Y65.305 E7274.0374
G1 X85.157 Y65.383 E7280.67075
G1 X85.966 Y65.485 E7286.78628
G1 X86.914 Y65.64 E7293.99069
G1 X87.743 Y65.804 E7300.32869
G1 X88.653 Y66.019 E7307.34159
G1 X89.459 Y66.239 E7313.60773
G1 X90.306 Y66.505 E7320.26613
G1 X91.138 Y66.797 E7326.87928
G1 X91.996 Y67.135 E7333.7956
G1 X92.778 Y67.476 E7340.19396
G1 X93.596 Y67.868 E7346.99703
G1 X94.36 Y68.268 E7353.46487
G1 X95.108 Y68.693 E7359.91717
G1 X95.918 Y69.194 E7367.06031
G1 X96.606 Y69.653 E7373.26325
G1 X97.375 Y70.208 E7380.37595
G1 X98.006 Y70.698 E7386.36779
G1 X98.72 Y71.295 E7393.34805
G1 X99.363 Y71.873 E7399.83255
G1 X100.006 Y72.494 E7406.53694
G1 X100.627 Y73.137 E7413.24132
G1 X101.205 Y73.78 E7419.72582
G1 X101.802 Y74.494 E7426.70608
G1 X102.292 Y75.125 E7432.69793
G1 X102.847 Y75.894 E7439.81062
G1 X103.306 Y76.582 E7446.01356
G1 X103.801 Y77.383 E7453.07562
G1 X104.244 Y78.163 E7459.80329
G1 X104.642 Y78.92 E7466.21766
G1 X104.871 Y79.398 E7470.19284
G1 X105.004 Y79.679 E7472.52448
G1 X105.368 Y80.511 E7479.33554
G1 X105.696 Y81.344 E7486.04992
G1 X105.988 Y82.175 E7492.65599
G1 X106.264 Y83.058 E7499.59446
G1 X106.481 Y83.846 E7505.72446
G1 X106.699 Y84.771 E7512.85202
G1 X106.861 Y85.581 E7519.04733
G1 X107.012 Y86.515 E7526.14328
G1 X107.117 Y87.343 E7532.40302
G1 X107.195 Y88.224 E7539.03636
G1 X107.24 Y89.071 E7545.39782
G1 X107.256 Y90 E7552.36635
G1 X107.24 Y90.929 E7559.33489
G1 X107.195 Y91.776 E7565.69635
G1 X107.117 Y92.657 E7572.32969
G1 X107.017 Y93.45 E7578.32429
G1 X106.859 Y94.422 E7585.70998
G1 X106.759 Y94.938 E7589.65198
G1 X106.698 Y95.236 E7591.93333
G1 X106.479 Y96.16 E7599.05531
G1 X106.261 Y96.959 E7605.26686
G1 X105.995 Y97.806 E7611.92526
G1 X105.703 Y98.638 E7618.5384
G1 X105.365 Y99.496 E7625.45472
G1 X105.024 Y100.278 E7631.85308
G1 X104.632 Y101.096 E7638.65616
G1 X104.232 Y101.86 E7645.12399
G1 X103.807 Y102.608 E7651.5763
G1 X103.306 Y103.418 E7658.71944
G1 X102.847 Y104.106 E7664.92237
G1 X102.299 Y104.865 E7671.94353
G1 X101.786 Y105.527 E7678.22481
G1 X101.219 Y106.204 E7684.84786
G1 X100.627 Y106.863 E7691.4918
G1 X100.006 Y107.506 E7698.19619
G1 X99.363 Y108.127 E7704.90057
G1 X98.72 Y108.705 E7711.38507
G1 X98.006 Y109.302 E7718.36533
G1 X97.375 Y109.792 E7724.35718
G1 X96.606 Y110.347 E7731.46987
G1 X95.918 Y110.806 E7737.67281
G1 X95.117 Y111.301 E7744.73487
G1 X94.35 Y111.737 E7751.35183
G1 X93.592 Y112.134 E7757.76936
G1 X93.072 Y112.385 E7762.09993
G1 X92.797 Y112.515 E7764.38127
G1 X91.989 Y112.868 E7770.99436
G1 X91.156 Y113.196 E7777.70873
G1 X90.318 Y113.491 E7784.37179
G1 X89.483 Y113.752 E7790.9331
G1 X88.625 Y113.988 E7797.60709
G1 X87.729 Y114.199 E7804.5109
G1 X86.919 Y114.361 E7810.70621
G1 X85.985 Y114.512 E7817.80217
G1 X85.157 Y114.617 E7824.0619
G1 X84.276 Y114.695 E7830.69525
G1 X83.429 Y114.74 E7837.05671
G0 F7200 X60.874 Y96.23
G1 F1800 X76.271 Y111.626 E8000.36125
G0 F7200 X84.161 Y112.445
G1 F1800 X60.053 Y88.337 E8256.0652
G0 F7200 X61.283 Y82.496
G1 F1800 X90.001 Y111.215 E8560.6709
G0 F7200 X94.741 Y108.883
G1 F1800 X63.614 Y77.756 E8890.82259
G0 F7200 X66.803 Y73.874
G1 F1800 X98.625 Y105.696 E9228.34587
G0 F7200 X101.714 Y101.714
G1 F1800 X70.786 Y70.786 E9556.38684
G0 F7200 X75.639 Y68.568
G1 F1800 X103.933 Y96.862 E9856.49003
G0 F7200 X104.99 Y90.848
G1 F1800 X81.651 Y67.509 E10104.03751
G0 F7200 X89.994 Y68.78
G92 E0
G1 F1800 X103.717 Y82.504 E145.5597
G1 X104.6 Y83.387
;MESH:NONMESH
G0 F600 X104.6 Y83.387 Z4.8
G0 F7200 X83.227 Y119.635
G0 X83.252 Y121.114
;TIME_ELAPSED:69.096153
;LAYER:3
;TYPE:WALL-OUTER
;MESH:Vaza_zakljucna.STL
G1 F1800 X82.499 Y121.125 E151.2078
G1 X81.364 Y121.105 E159.72162
G1 X80.291 Y121.048 E167.78047
G1 X79.162 Y120.947 E176.28178
G1 X78.089 Y120.812 E184.39273
G1 X76.964 Y120.63 E192.93993
G1 X75.887 Y120.416 E201.17534
G1 X74.783 Y120.155 E209.68359
G1 X73.731 Y119.866 E217.86589
G1 X72.668 Y119.532 E226.22267
G1 X71.632 Y119.168 E234.45832
G1 X70.6 Y118.761 E242.77849
G1 X69.56 Y118.308 E251.28631
G1 X68.557 Y117.829 E259.62262
G1 X67.595 Y117.325 E267.76784
G1 X66.622 Y116.772 E276.16161
G1 X65.67 Y116.183 E284.55767
G1 X64.728 Y115.553 E293.05708
G1 X63.862 Y114.929 E301.06254
G1 X62.961 Y114.229 E309.61978
G1 X62.127 Y113.533 E317.76676
G1 X61.285 Y112.776 E326.25871
G1 X60.491 Y112.009 E334.53841
G1 X59.724 Y111.215 E342.8181
G1 X58.967 Y110.373 E351.31005
G1 X58.271 Y109.539 E359.45704
G1 X57.571 Y108.638 E368.01427
G1 X56.947 Y107.772 E376.01974
G1 X56.313 Y106.824 E384.57322
G1 X55.728 Y105.878 E392.91523
G1 X55.175 Y104.905 E401.309
G1 X54.671 Y103.943 E409.45422
G1 X54.188 Y102.932 E417.8576
G1 X54.034 Y102.583 E420.7186
G1 X53.741 Y101.907 E426.24435
G1 X53.332 Y100.868 E434.61887
G1 X52.968 Y99.832 E442.85451
G1 X52.64 Y98.787 E451.06901
G1 X52.341 Y97.697 E459.54601
G1 X52.253 Y97.332 E462.36195
G1 X52.086 Y96.621 E467.83957
G1 X51.866 Y95.512 E476.31915
G1 X51.688 Y94.406 E484.72089
G1 X51.552 Y93.329 E492.86254
G1 X51.453 Y92.224 E501.18323
G1 X51.393 Y91.108 E509.56532
G1 X51.386 Y90.752 E512.23583
G1 X51.375 Y90 E517.87644
G1 X51.395 Y88.855 E526.46525
G1 X51.452 Y87.791 E534.45669
G1 X51.553 Y86.662 E542.95801
G1 X51.688 Y85.589 E551.06895
G1 X51.87 Y84.464 E559.61615
G1 X52.084 Y83.387 E567.85156
G1 X52.349 Y82.269 E576.46889
G1 X52.634 Y81.231 E584.542
G1 X52.968 Y80.168 E592.89879
G1 X53.332 Y79.132 E601.13443
G1 X53.739 Y78.1 E609.45461
G1 X54.192 Y77.06 E617.96243
G1 X54.671 Y76.057 E626.29874
G1 X55.175 Y75.095 E634.44396
G1 X55.728 Y74.122 E642.83772
G1 X56.313 Y73.176 E651.17973
G1 X56.947 Y72.228 E659.73322
G1 X57.571 Y71.362 E667.73868
G1 X58.271 Y70.461 E676.29592
G1 X58.967 Y69.627 E684.44291
G1 X59.724 Y68.785 E692.93486
G1 X60.503 Y67.979 E701.34181
G1 X61.285 Y67.224 E709.49424
G1 X62.127 Y66.467 E717.98619
G1 X62.961 Y65.771 E726.13318
G1 X63.862 Y65.071 E734.69042
G1 X64.728 Y64.447 E742.69588
G1 X65.676 Y63.813 E751.24937
G1 X66.622 Y63.228 E759.59138
G1 X67.595 Y62.675 E767.98514
G1 X68.557 Y62.171 E776.13036
G1 X69.568 Y61.688 E784.53374
G1 X69.901 Y61.541 E787.26376
G1 X70.593 Y61.241 E792.92049
G1 X71.632 Y60.832 E801.29502
G1 X72.668 Y60.468 E809.53066
G1 X73.713 Y60.14 E817.74516
G1 X74.803 Y59.841 E826.22215
G1 X75.168 Y59.753 E829.03809
G1 X75.879 Y59.586 E834.51571
G1 X76.988 Y59.366 E842.99529
G1 X78.094 Y59.188 E851.39703
G1 X79.171 Y59.052 E859.53868
G1 X80.276 Y58.953 E867.85937
G1 X81.392 Y58.893 E876.24146
G1 X82.495 Y58.874 E884.51519
G1 X83.636 Y58.895 E893.07414
G1 X84.709 Y58.952 E901.13298
G1 X85.838 Y59.053 E909.6343
G1 X86.911 Y59.188 E917.74524
G1 X88.036 Y59.37 E926.29244
G1 X89.113 Y59.584 E934.52786
G1 X90.217 Y59.845 E943.0361
G1 X91.269 Y60.134 E951.21841
G1 X92.332 Y60.468 E959.57519
G1 X93.368 Y60.832 E967.81083
G1 X94.4 Y61.239 E976.13101
G1 X95.44 Y61.692 E984.63883
G1 X96.443 Y62.171 E992.97514
G1 X97.405 Y62.675 E1001.12036
G1 X98.378 Y63.228 E1009.51412
G1 X99.324 Y63.813 E1017.85614
G1 X100.272 Y64.447 E1026.40962
G1 X101.138 Y65.071 E1034.41508
G1 X102.039 Y65.771 E1042.97232
G1 X102.873 Y66.467 E1051.11931
G1 X103.715 Y67.224 E1059.61126
G1 X104.497 Y67.979 E1067.76369
G1 X105.276 Y68.785 E1076.17064
G1 X106.033 Y69.627 E1084.66259
G1 X106.729 Y70.461 E1092.80958
G1 X107.429 Y71.362 E1101.36682
G1 X108.053 Y72.228 E1109.37228
G1 X108.687 Y73.176 E1117.92577
G1 X109.272 Y74.122 E1126.26778
G1 X109.825 Y75.095 E1134.66154
G1 X110.329 Y76.057 E1142.80677
G1 X110.812 Y77.068 E1151.21015
G1 X110.959 Y77.401 E1153.94017
G1 X111.259 Y78.093 E1159.5969
G1 X111.668 Y79.132 E1167.97142
G1 X112.032 Y80.168 E1176.20706
G1 X112.354 Y81.193 E1184.26497
G1 X112.659 Y82.303 E1192.89853
G1 X112.747 Y82.668 E1195.71446
G1 X112.914 Y83.379 E1201.19208
G1 X113.134 Y84.488 E1209.67166
G1 X113.312 Y85.594 E1218.0734
G1 X113.448 Y86.671 E1226.21505
G1 X113.482 Y87.032 E1228.93453
G1 X113.547 Y87.776 E1234.53579
G1 X113.607 Y88.892 E1242.91788
G1 X113.626 Y89.995 E1251.1916
G1 X113.605 Y91.136 E1259.75055
G1 X113.548 Y92.209 E1267.8094
G1 X113.447 Y93.338 E1276.31071
G1 X113.312 Y94.411 E1284.42166
G1 X113.13 Y95.536 E1292.96886
G1 X112.916 Y96.613 E1301.20427
G1 X112.655 Y97.717 E1309.71252
G1 X112.366 Y98.769 E1317.89482
G1 X112.032 Y99.832 E1326.2516
G1 X111.668 Y100.868 E1334.48725
G1 X111.261 Y101.9 E1342.80742
G1 X110.808 Y102.94 E1351.31524
G1 X110.329 Y103.943 E1359.65155
G1 X109.825 Y104.905 E1367.79677
G1 X109.272 Y105.878 E1376.19054
G1 X108.687 Y106.824 E1384.53255
G1 X108.053 Y107.772 E1393.08604
G1 X107.429 Y108.638 E1401.0915
G1 X106.729 Y109.539 E1409.64874
G1 X106.033 Y110.373 E1417.79573
G1 X105.276 Y111.215 E1426.28768
G1 X104.509 Y112.009 E1434.56737
G1 X103.715 Y112.776 E1442.84706
G1 X102.873 Y113.533 E1451.33901
G1 X102.039 Y114.229 E1459.486
G1 X101.138 Y114.929 E1468.04323
G1 X100.272 Y115.553 E1476.0487
G1 X99.33 Y116.183 E1484.5481
G1 X98.378 Y116.772 E1492.94416
G1 X97.405 Y117.325 E1501.33793
G1 X96.443 Y117.829 E1509.48315
G1 X95.432 Y118.312 E1517.88653
G1 X95.099 Y118.459 E1520.61655
G1 X94.407 Y118.759 E1526.27328
G1 X93.368 Y119.168 E1534.6478
G1 X92.332 Y119.532 E1542.88344
G1 X91.287 Y119.86 E1551.09794
G1 X90.197 Y120.159 E1559.57494
G1 X89.832 Y120.247 E1562.39088
G1 X89.121 Y120.414 E1567.8685
G1 X88.012 Y120.634 E1576.34808
G1 X86.906 Y120.812 E1584.74982
G1 X85.829 Y120.948 E1592.89146
G1 X84.724 Y121.047 E1601.21216
G1 X83.608 Y121.107 E1609.59425
G1 X83.252 Y121.114 E1612.26476
G0 F7200 X83.052 Y121.116
G0 X83.052 Y121.016
G0 X82.514 Y116.133
;TYPE:SKIN
G1 F1800 X81.518 Y116.116 E1619.73585
G1 X80.642 Y116.07 E1626.3149
G1 X79.677 Y115.983 E1633.58176
G1 X78.815 Y115.875 E1640.0973
G1 X77.844 Y115.718 E1647.47438
G1 X76.961 Y115.543 E1654.22569
G1 X76.032 Y115.323 E1661.3859
G1 X75.123 Y115.073 E1668.45654
G1 X74.258 Y114.801 E1675.25722
G1 X73.367 Y114.488 E1682.34005
G1 X72.507 Y114.149 E1689.27308
G1 X71.645 Y113.774 E1696.32335
G1 X70.783 Y113.361 E1703.49208
G1 X69.972 Y112.937 E1710.3557
G1 X69.173 Y112.483 E1717.24802
G1 X68.373 Y111.988 E1724.3037
G1 X67.586 Y111.462 E1731.40317
G1 X66.847 Y110.929 E1738.23686
G1 X66.078 Y110.332 E1745.53838
G1 X65.409 Y109.773 E1752.0769
G1 X64.687 Y109.124 E1759.35803
G1 X64.02 Y108.48 E1766.31173
G1 X63.376 Y107.813 E1773.26542
G1 X62.727 Y107.091 E1780.54655
G1 X62.168 Y106.422 E1787.08508
G1 X61.571 Y105.653 E1794.38659
G1 X61.034 Y104.908 E1801.27433
G1 X60.516 Y104.132 E1808.27187
G1 X60.007 Y103.311 E1815.51674
G1 X59.558 Y102.519 E1822.34489
G1 X59.154 Y101.749 E1828.86651
G1 X58.713 Y100.826 E1836.53857
G1 X58.344 Y99.98 E1843.46086
G1 X58.021 Y99.158 E1850.08474
G1 X57.693 Y98.226 E1857.49498
G1 X57.432 Y97.391 E1864.05628
G1 X57.168 Y96.431 E1871.52357
G1 X56.961 Y95.553 E1878.28911
G1 X56.771 Y94.593 E1885.62877
G1 X56.63 Y93.715 E1892.29814
G1 X56.514 Y92.792 E1899.2751
G1 X56.429 Y91.845 E1906.40615
G1 X56.381 Y90.949 E1913.13579
G1 X56.367 Y90.009 E1920.18657
G1 X56.385 Y88.985 E1927.86776
G1 X56.428 Y88.168 E1934.00374
G1 X56.518 Y87.163 E1941.5714
G1 X56.625 Y86.315 E1947.98183
G1 X56.78 Y85.355 E1955.27507
G1 X56.956 Y84.472 E1962.02784
G1 X57.19 Y83.485 E1969.63554
G1 X57.424 Y82.634 E1976.25493
G1 X57.699 Y81.758 E1983.14106
G1 X58.012 Y80.867 E1990.2239
G1 X58.354 Y80.001 E1997.20704
G1 X58.729 Y79.14 E2004.25044
G1 X59.139 Y78.283 E2011.37563
G1 X59.576 Y77.448 E2018.44393
G1 X60.007 Y76.689 E2024.9902
G1 X60.516 Y75.868 E2032.23507
G1 X61.034 Y75.092 E2039.23261
G1 X61.571 Y74.347 E2046.12035
G1 X62.168 Y73.578 E2053.42186
G1 X62.727 Y72.909 E2059.96039
G1 X63.376 Y72.187 E2067.24151
G1 X64.03 Y71.51 E2074.30126
G1 X64.687 Y70.876 E2081.14891
G1 X65.409 Y70.227 E2088.43003
G1 X66.078 Y69.668 E2094.96856
G1 X66.847 Y69.071 E2102.27007
G1 X67.592 Y68.534 E2109.15781
G1 X68.368 Y68.016 E2116.15535
G1 X69.189 Y67.507 E2123.40022
G1 X69.981 Y67.058 E2130.22837
G1 X70.762 Y66.648 E2136.84396
G1 X71.669 Y66.215 E2144.38188
G1 X72.512 Y65.848 E2151.27755
G1 X73.352 Y65.518 E2158.04627
G1 X74.274 Y65.193 E2165.3783
G1 X75.116 Y64.93 E2171.99419
G1 X76.064 Y64.67 E2179.36675
G1 X76.969 Y64.456 E2186.34143
G1 X77.86 Y64.28 E2193.15305
G1 X78.79 Y64.129 E2200.21939
G1 X79.708 Y64.014 E2207.1582
G1 X80.655 Y63.929 E2214.28926
G1 X81.524 Y63.883 E2220.81588
G1 X82.489 Y63.866 E2228.05451
G1 X83.483 Y63.884 E2235.51073
G1 X84.358 Y63.93 E2242.08229
G1 X85.323 Y64.017 E2249.34914
G1 X86.185 Y64.125 E2255.86469
G1 X87.156 Y64.282 E2263.24177
G1 X88.039 Y64.457 E2269.99308
G1 X88.968 Y64.677 E2277.15328
G1 X89.877 Y64.927 E2284.22392
G1 X90.742 Y65.199 E2291.0246
G1 X91.633 Y65.512 E2298.10744
G1 X92.493 Y65.851 E2305.04046
G1 X93.355 Y66.226 E2312.09074
G1 X94.217 Y66.639 E2319.25947
G1 X95.042 Y67.071 E2326.24393
G1 X95.811 Y67.507 E2332.87394
G1 X96.632 Y68.016 E2340.11881
G1 X97.408 Y68.534 E2347.11635
G1 X98.153 Y69.071 E2354.00409
G1 X98.922 Y69.668 E2361.3056
G1 X99.591 Y70.227 E2367.84413
G1 X100.313 Y70.876 E2375.12525
G1 X100.97 Y71.51 E2381.9729
G1 X101.624 Y72.187 E2389.03265
G1 X102.273 Y72.909 E2396.31377
G1 X102.832 Y73.578 E2402.8523
G1 X103.429 Y74.347 E2410.15381
G1 X103.966 Y75.092 E2417.04155
G1 X104.484 Y75.868 E2424.03909
G1 X104.993 Y76.689 E2431.28396
G1 X105.442 Y77.481 E2438.11211
G1 X105.852 Y78.262 E2444.7277
G1 X106.284 Y79.167 E2452.24885
G1 X106.647 Y80.001 E2459.07066
G1 X106.985 Y80.86 E2465.99395
G1 X107.301 Y81.758 E2473.13378
G1 X107.561 Y82.585 E2479.63559
G1 X107.829 Y83.56 E2487.2193
G1 X108.044 Y84.469 E2494.2249
G1 X108.22 Y85.36 E2501.03653
G1 X108.375 Y86.315 E2508.29275
G1 X108.482 Y87.163 E2514.70318
G1 X108.571 Y88.169 E2522.27765
G1 X108.618 Y89.049 E2528.88706
G1 X108.634 Y89.991 E2535.95308
G1 X108.617 Y90.968 E2543.28169
G1 X108.57 Y91.859 E2549.97348
G1 X108.483 Y92.823 E2557.23286
G1 X108.375 Y93.685 E2563.74841
G1 X108.219 Y94.653 E2571.10208
G1 X108.043 Y95.539 E2577.87692
G1 X107.823 Y96.468 E2585.03712
G1 X107.573 Y97.377 E2592.10776
G1 X107.301 Y98.242 E2598.90844
G1 X106.988 Y99.133 E2605.99128
G1 X106.653 Y99.982 E2612.83655
G1 X106.264 Y100.875 E2620.14191
G1 X105.867 Y101.707 E2627.05589
G1 X105.429 Y102.542 E2634.12767
G1 X104.993 Y103.311 E2640.75768
G1 X104.484 Y104.132 E2648.00254
G1 X103.966 Y104.908 E2655.00009
G1 X103.429 Y105.653 E2661.88783
G1 X102.832 Y106.422 E2669.18934
G1 X102.273 Y107.091 E2675.72787
G1 X101.624 Y107.813 E2683.00899
G1 X100.98 Y108.48 E2689.96269
G1 X100.313 Y109.124 E2696.91638
G1 X99.591 Y109.773 E2704.19751
G1 X98.922 Y110.332 E2710.73604
G1 X98.153 Y110.929 E2718.03755
G1 X97.414 Y111.462 E2724.87124
G1 X96.627 Y111.988 E2731.97071
G1 X95.827 Y112.483 E2739.0264
G1 X95.005 Y112.95 E2746.11686
G1 X94.238 Y113.352 E2752.61159
G1 X93.331 Y113.785 E2760.14951
G1 X92.488 Y114.152 E2767.04518
G1 X91.648 Y114.482 E2773.81391
G1 X90.726 Y114.807 E2781.14593
G1 X89.884 Y115.07 E2787.76182
G1 X88.936 Y115.33 E2795.13438
G1 X88.031 Y115.544 E2802.10906
G1 X87.14 Y115.72 E2808.92068
G1 X86.21 Y115.871 E2815.98703
G1 X85.292 Y115.986 E2822.92584
G1 X84.345 Y116.071 E2830.05689
G1 X83.449 Y116.119 E2836.78653
G1 X82.514 Y116.133 E2843.79981
G0 F7200 X94.297 Y110.763
G1 F1800 X103.263 Y101.797 E2938.8986
G1 X104.146 Y100.914
G0 F7200 X106.325 Y91.664
G1 F1800 X84.163 Y113.826 E3173.96211
G0 F7200 X77.552 Y113.366
G1 F1800 X105.864 Y85.054 E3474.25622
G0 F7200 X104.077 Y79.77
G1 F1800 X72.269 Y111.577 E3811.6257
G0 F7200 X67.887 Y108.889
G1 F1800 X101.388 Y75.388 E4166.95747
G0 F7200 X97.932 Y71.772
G1 F1800 X64.273 Y105.431 E4523.96508
G0 F7200 X61.417 Y101.217
G1 F1800 X93.717 Y68.916 E4866.56361
G0 F7200 X88.642 Y66.92
G1 F1800 X59.423 Y96.14 E5176.48321
G0 F7200 X58.621 Y89.871
G1 F1800 X82.374 Y66.118 E5428.42182
G0 F7200 X73.573 Y67.847
G1 F1800 X60.349 Y81.071 E5568.68352
G1 X59.466 Y81.954
;MESH:NONMESH
G0 F600 X59.466 Y81.954 Z6.3
G0 F7200 X81.325 Y120.637
;TIME_ELAPSED:94.859525
;LAYER:4
;TYPE:WALL-OUTER
;MESH:Vaza_zakljucna.STL
G1 F1800 X82.5 Y120.659 E5577.49757
G1 X83.675 Y120.637 E5586.31161
G1 X84.847 Y120.569 E5595.1164
G1 X86.016 Y120.457 E5603.92404
G1 X87.181 Y120.3 E5612.74053
G1 X88.339 Y120.098 E5621.55668
G1 X89.484 Y119.853 E5630.33857
G1 X90.625 Y119.564 E5639.1663
G1 X91.751 Y119.23 E5647.97499
G1 X92.864 Y118.854 E5656.78596
G1 X93.961 Y118.436 E5665.5905
G1 X95.041 Y117.977 E5674.39168
G1 X96.104 Y117.476 E5683.20528
G1 X97.146 Y116.935 E5692.01082
G1 X98.167 Y116.355 E5700.81763
G1 X99.166 Y115.735 E5709.63579
G1 X100.14 Y115.077 E5718.45153
G1 X101.087 Y114.384 E5727.25264
G1 X102.007 Y113.654 E5736.06091
G1 X102.899 Y112.889 E5744.87425
G1 X103.762 Y112.09 E5753.69487
G1 X104.395 Y111.455 E5760.41947
G1 X104.585 Y111.267 E5762.42414
G1 X105.39 Y110.397 E5771.31386
G1 X105.987 Y109.699 E5778.20249
G1 X106.147 Y109.516 E5780.02561
G1 X106.884 Y108.587 E5788.91938
G1 X107.577 Y107.64 E5797.72049
G1 X108.236 Y106.664 E5806.55286
G1 X108.706 Y105.904 E5813.25477
G1 X108.85 Y105.676 E5815.27727
G1 X109.435 Y104.646 E5824.16129
G1 X109.976 Y103.604 E5832.96683
G1 X110.477 Y102.541 E5841.78043
G1 X110.936 Y101.461 E5850.58161
G1 X111.354 Y100.364 E5859.38616
G1 X111.73 Y99.251 E5868.19712
G1 X112.064 Y98.125 E5877.00581
G1 X112.353 Y96.984 E5885.83355
G1 X112.598 Y95.839 E5894.61544
G1 X112.801 Y94.679 E5903.44765
G1 X112.917 Y93.795 E5910.13449
G1 X112.956 Y93.528 E5912.15824
G1 X113.069 Y92.347 E5921.05619
G1 X113.137 Y91.175 E5929.86097
G1 X113.159 Y90 E5938.67502
G1 X113.137 Y88.825 E5947.48906
G1 X113.069 Y87.653 E5956.29384
G1 X112.957 Y86.484 E5965.10149
G1 X112.8 Y85.319 E5973.91798
G1 X112.598 Y84.161 E5982.73412
G1 X112.353 Y83.016 E5991.51601
G1 X112.064 Y81.875 E6000.34375
G1 X111.73 Y80.749 E6009.15244
G1 X111.354 Y79.636 E6017.96341
G1 X110.936 Y78.539 E6026.76795
G1 X110.477 Y77.459 E6035.56913
G1 X109.976 Y76.396 E6044.38273
G1 X109.435 Y75.354 E6053.18827
G1 X108.855 Y74.333 E6061.99508
G1 X108.235 Y73.334 E6070.81324
G1 X107.577 Y72.36 E6079.62898
G1 X106.884 Y71.413 E6088.43009
G1 X106.154 Y70.493 E6097.23836
G1 X105.389 Y69.601 E6106.0517
G1 X104.59 Y68.738 E6114.87232
G1 X103.94 Y68.09 E6121.75601
G1 X103.767 Y67.915 E6123.60159
G1 X102.897 Y67.11 E6132.49131
G1 X102.199 Y66.513 E6139.37994
G1 X102.016 Y66.353 E6141.20306
G1 X101.087 Y65.616 E6150.09683
G1 X100.14 Y64.923 E6158.89794
G1 X99.164 Y64.264 E6167.73031
G1 X98.383 Y63.781 E6174.61746
G1 X98.176 Y63.65 E6176.45473
G1 X97.146 Y63.065 E6185.33875
G1 X96.104 Y62.524 E6194.14429
G1 X95.041 Y62.023 E6202.95789
G1 X93.961 Y61.564 E6211.75907
G1 X92.864 Y61.146 E6220.56361
G1 X91.751 Y60.77 E6229.37458
G1 X90.625 Y60.436 E6238.18327
G1 X89.484 Y60.147 E6247.01101
G1 X88.339 Y59.902 E6255.79289
G1 X87.179 Y59.699 E6264.62511
G1 X86.282 Y59.581 E6271.41057
G1 X86.028 Y59.544 E6273.33567
G1 X84.847 Y59.431 E6282.23363
G1 X83.675 Y59.363 E6291.03841
G1 X82.5 Y59.341 E6299.85245
G1 X81.325 Y59.363 E6308.6665
G1 X80.153 Y59.431 E6317.47128
G1 X78.984 Y59.543 E6326.27893
G1 X77.819 Y59.7 E6335.09542
G1 X76.661 Y59.902 E6343.91156
G1 X75.516 Y60.147 E6352.69345
G1 X74.375 Y60.436 E6361.52118
G1 X73.249 Y60.77 E6370.32987
G1 X72.136 Y61.146 E6379.14084
G1 X71.039 Y61.564 E6387.94539
G1 X69.959 Y62.023 E6396.74657
G1 X68.896 Y62.524 E6405.56017
G1 X67.854 Y63.065 E6414.36571
G1 X66.833 Y63.645 E6423.17251
G1 X65.834 Y64.265 E6431.99068
G1 X64.86 Y64.923 E6440.80642
G1 X63.913 Y65.616 E6449.60753
G1 X62.993 Y66.346 E6458.4158
G1 X62.101 Y67.111 E6467.22914
G1 X61.238 Y67.91 E6476.04976
G1 X60.605 Y68.545 E6482.77435
G1 X60.415 Y68.733 E6484.77903
G1 X59.61 Y69.603 E6493.66874
G1 X59.013 Y70.301 E6500.55737
G1 X58.853 Y70.484 E6502.38049
G1 X58.116 Y71.413 E6511.27427
G1 X57.423 Y72.36 E6520.07538
G1 X56.764 Y73.336 E6528.90775
G1 X56.294 Y74.096 E6535.60966
G1 X56.15 Y74.324 E6537.63216
G1 X55.565 Y75.354 E6546.51617
G1 X55.024 Y76.396 E6555.32171
G1 X54.523 Y77.459 E6564.13532
G1 X54.064 Y78.539 E6572.9365
G1 X53.646 Y79.636 E6581.74104
G1 X53.27 Y80.749 E6590.55201
G1 X52.936 Y81.875 E6599.3607
G1 X52.647 Y83.016 E6608.18843
G1 X52.402 Y84.161 E6616.97032
G1 X52.199 Y85.321 E6625.80254
G1 X52.083 Y86.205 E6632.48937
G1 X52.044 Y86.472 E6634.51312
G1 X51.931 Y87.653 E6643.41108
G1 X51.863 Y88.825 E6652.21586
G1 X51.841 Y90 E6661.0299
G1 X51.863 Y91.175 E6669.84395
G1 X51.931 Y92.347 E6678.64873
G1 X52.043 Y93.516 E6687.45638
G1 X52.2 Y94.681 E6696.27286
G1 X52.402 Y95.839 E6705.08901
G1 X52.647 Y96.984 E6713.8709
G1 X52.936 Y98.125 E6722.69863
G1 X53.27 Y99.251 E6731.50732
G1 X53.646 Y100.364 E6740.31829
G1 X54.064 Y101.461 E6749.12283
G1 X54.523 Y102.541 E6757.92402
G1 X55.024 Y103.604 E6766.73762
G1 X55.565 Y104.646 E6775.54316
G1 X56.145 Y105.667 E6784.34996
G1 X56.765 Y106.666 E6793.16813
G1 X57.423 Y107.64 E6801.98387
G1 X58.116 Y108.587 E6810.78498
G1 X58.846 Y109.507 E6819.59325
G1 X59.611 Y110.399 E6828.40659
G1 X60.41 Y111.262 E6837.22721
G1 X61.045 Y111.895 E6843.9518
G1 X61.233 Y112.085 E6845.95648
G1 X62.103 Y112.89 E6854.84619
G1 X62.801 Y113.487 E6861.73482
G1 X62.984 Y113.647 E6863.55794
G1 X63.913 Y114.384 E6872.45172
G1 X64.86 Y115.077 E6881.25283
G1 X65.836 Y115.736 E6890.08519
G1 X66.596 Y116.206 E6896.78711
G1 X66.824 Y116.35 E6898.8096
G1 X67.854 Y116.935 E6907.69362
G1 X68.896 Y117.476 E6916.49916
G1 X69.959 Y117.977 E6925.31276
G1 X71.039 Y118.436 E6934.11395
G1 X72.136 Y118.854 E6942.91849
G1 X73.249 Y119.23 E6951.72946
G1 X74.375 Y119.564 E6960.53815
G1 X75.516 Y119.853 E6969.36588
G1 X76.661 Y120.098 E6978.14777
G1 X77.821 Y120.301 E6986.97998
G1 X78.718 Y120.419 E6993.76544
G1 X78.972 Y120.456 E6995.69055
G1 X80.153 Y120.569 E7004.5885
G1 X81.325 Y120.637 E7013.39329
G0 F7200 X81.525 Y120.64
G0 X81.523 Y120.74
G0 X83.648 Y122.172
G0 X83.651 Y122.271
G1 F1800 X82.492 Y122.29 E7016.41869
G1 X82.234 Y122.287
G1 X81.321 Y122.269 E7018.00552
G1 X80.208 Y122.21 E7021.17098
G1 X79.037 Y122.105 E7025.09478
G1 X77.928 Y121.965 E7030.06025
G1 X77.627 Y121.919
G1 X76.77 Y121.778 E7032.61416
G1 X75.633 Y121.552 E7037.73811
G1 X74.526 Y121.291 E7043.18683
G1 X73.402 Y120.983 E7049.00193
G1 X72.31 Y120.641 E7054.33561
G1 X71.2 Y120.249 E7059.44617
G1 X70.156 Y119.838 E7063.83354
G1 X69.085 Y119.372 E7067.98803
G1 X68.049 Y118.876 E7071.6421
G1 X67.014 Y118.334 E7074.9998
G1 X66.027 Y117.773 E7077.65346
G1 X65.04 Y117.163 E7082.23348
G1 X64.089 Y116.528 E7085.71159
G1 X63.141 Y115.845 E7089.73965
G1 X62.243 Y115.147 E7094.02928
G1 X61.359 Y114.407 E7099.19168
G1 X60.49 Y113.626 E7104.44339
G1 X59.667 Y112.833 E7109.47017
G1 X58.874 Y112.01 E7115.06027
G1 X58.093 Y111.141 E7120.39012
G1 X57.353 Y110.257 E7125.24831
G1 X56.655 Y109.359 E7129.56006
G1 X55.972 Y108.411 E7133.59446
G1 X55.337 Y107.46 E7137.09276
G1 X54.727 Y106.473 E7140.24139
G1 X54.166 Y105.486 E7143.01889
G1 X53.624 Y104.451 E7146.37338
G1 X53.128 Y103.415 E7150.01564
G1 X52.662 Y102.344 E7154.14744
G1 X52.249 Y101.294 E7158.54376
G1 X52.15 Y101.019
G1 X51.863 Y100.202 E7161.32943
G1 X51.517 Y99.098 E7166.72803
G1 X51.209 Y97.974 E7172.54095
G1 X50.945 Y96.855 E7178.11353
G1 X50.89 Y96.586
G1 X50.723 Y95.732 E7181.69456
G1 X50.676 Y95.454
G1 X50.54 Y94.611 E7185.24055
G1 X50.394 Y93.455 E7189.50879
G1 X50.29 Y92.292 E7193.42542
G1 X50.229 Y91.151 E7196.80731
G1 X50.21 Y89.992 E7199.83271
G1 X50.213 Y89.734
G1 X50.231 Y88.807 E7201.48927
G1 X50.29 Y87.708 E7204.5569
G1 X50.395 Y86.537 E7208.48507
G1 X50.533 Y85.438 E7213.36368
G1 X50.581 Y85.127
G1 X50.722 Y84.27 E7215.88976
G1 X50.948 Y83.133 E7221.02387
G1 X51.209 Y82.026 E7226.45818
G1 X51.517 Y80.902 E7232.29527
G1 X51.859 Y79.81 E7237.62896
G1 X52.251 Y78.7 E7242.73951
G1 X52.662 Y77.656 E7247.12688
G1 X53.128 Y76.585 E7251.28137
G1 X53.624 Y75.548 E7254.94263
G1 X54.166 Y74.514 E7258.29569
G1 X54.727 Y73.527 E7260.94934
G1 X55.337 Y72.54 E7265.52998
G1 X55.972 Y71.589 E7269.00885
G1 X56.655 Y70.641 E7273.02492
G1 X57.353 Y69.743 E7277.30381
G1 X58.093 Y68.859 E7282.46621
G1 X58.874 Y67.99 E7287.71792
G1 X59.667 Y67.167 E7292.7447
G1 X60.49 Y66.374 E7298.3348
G1 X61.359 Y65.593 E7303.66464
G1 X62.243 Y64.853 E7308.52284
G1 X63.141 Y64.155 E7312.83458
G1 X64.089 Y63.472 E7316.86899
G1 X65.04 Y62.837 E7320.36729
G1 X66.027 Y62.227 E7323.51592
G1 X67.014 Y61.666 E7326.29342
G1 X68.049 Y61.124 E7329.64791
G1 X69.085 Y60.628 E7333.29903
G1 X70.156 Y60.162 E7337.45352
G1 X71.206 Y59.749 E7341.83707
G1 X71.481 Y59.65
G1 X72.298 Y59.363 E7344.62109
G1 X73.402 Y59.017 E7350.01969
G1 X74.526 Y58.709 E7355.8326
G1 X75.645 Y58.445 E7361.40519
G1 X76.768 Y58.223 E7366.50972
G1 X77.046 Y58.176
G1 X77.889 Y58.04 E7370.05571
G1 X79.045 Y57.894 E7374.32396
G1 X80.208 Y57.79 E7378.24058
G1 X81.349 Y57.729 E7381.62247
G1 X82.508 Y57.71 E7384.64787
G1 X82.766 Y57.713
G1 X83.679 Y57.731 E7386.2347
G1 X84.792 Y57.79 E7389.40478
G1 X85.963 Y57.895 E7393.33295
G1 X87.072 Y58.035 E7398.29842
G1 X87.373 Y58.081
G1 X88.23 Y58.222 E7400.85233
G1 X89.367 Y58.448 E7405.97628
G1 X90.474 Y58.709 E7411.42501
G1 X91.598 Y59.017 E7417.29257
G1 X92.69 Y59.359 E7422.62625
G1 X93.8 Y59.751 E7427.73681
G1 X94.844 Y60.162 E7432.12418
G1 X95.915 Y60.628 E7436.27867
G1 X96.951 Y61.124 E7439.93274
G1 X97.986 Y61.666 E7443.29044
G1 X98.973 Y62.227 E7445.9441
G1 X99.96 Y62.837 E7450.39842
G1 X100.911 Y63.472 E7453.87729
G1 X101.859 Y64.155 E7457.90535
G1 X102.757 Y64.853 E7462.19498
G1 X103.641 Y65.593 E7467.35738
G1 X104.51 Y66.374 E7472.64823
G1 X105.333 Y67.167 E7477.77199
G1 X106.126 Y67.99 E7483.36434
G1 X106.907 Y68.859 E7488.69418
G1 X107.647 Y69.743 E7493.55238
G1 X108.345 Y70.641 E7497.86412
G1 X109.028 Y71.589 E7501.89853
G1 X109.663 Y72.54 E7505.39683
G1 X110.273 Y73.527 E7508.54546
G1 X110.834 Y74.514 E7511.32295
G1 X111.376 Y75.548 E7514.67602
G1 X111.872 Y76.585 E7518.32841
G1 X112.338 Y77.656 E7522.47465
G1 X112.751 Y78.706 E7526.88374
G1 X112.845 Y78.966
G1 X113.137 Y79.798 E7529.79194
G1 X113.483 Y80.902 E7535.14908
G1 X113.791 Y82.026 E7540.97971
G1 X114.055 Y83.145 E7546.5523
G1 X114.277 Y84.268 E7551.65683
G1 X114.324 Y84.546
G1 X114.458 Y85.375 E7554.99708
G1 X114.497 Y85.668
G1 X114.606 Y86.545 E7558.58744
G1 X114.71 Y87.708 E7562.50406
G1 X114.771 Y88.849 E7565.88595
G1 X114.79 Y90.008 E7568.91135
G1 X114.787 Y90.266
G1 X114.769 Y91.175 E7570.47826
G1 X114.71 Y92.292 E7573.67371
G1 X114.605 Y93.463 E7577.60842
G1 X114.467 Y94.562 E7582.49478
G1 X114.419 Y94.873
G1 X114.278 Y95.73 E7585.02086
G1 X114.052 Y96.867 E7590.15497
G1 X113.791 Y97.974 E7595.63437
G1 X113.483 Y99.098 E7601.44946
G1 X113.141 Y100.19 E7606.78315
G1 X112.749 Y101.3 E7611.8937
G1 X112.338 Y102.344 E7616.28107
G1 X111.872 Y103.415 E7620.43556
G1 X111.376 Y104.451 E7624.08963
G1 X110.834 Y105.486 E7627.44734
G1 X110.273 Y106.473 E7630.10099
G1 X109.663 Y107.46 E7634.68163
G1 X109.028 Y108.411 E7638.1605
G1 X108.345 Y109.359 E7642.17657
G1 X107.647 Y110.257 E7646.45546
G1 X106.907 Y111.141 E7651.61786
G1 X106.126 Y112.01 E7656.86957
G1 X105.333 Y112.833 E7661.89635
G1 X104.51 Y113.626 E7667.48645
G1 X103.641 Y114.407 E7672.8163
G1 X102.757 Y115.147 E7677.67449
G1 X101.859 Y115.845 E7681.98624
G1 X100.911 Y116.528 E7686.02064
G1 X99.96 Y117.163 E7689.51894
G1 X98.973 Y117.773 E7692.66757
G1 X97.986 Y118.334 E7695.44507
G1 X96.951 Y118.876 E7698.79956
G1 X95.915 Y119.372 E7702.45068
G1 X94.844 Y119.838 E7706.60517
G1 X93.794 Y120.251 E7711.01426
G1 X93.519 Y120.35
G1 X92.702 Y120.637 E7713.79993
G1 X91.598 Y120.983 E7719.19853
G1 X90.474 Y121.291 E7725.01145
G1 X89.355 Y121.555 E7730.58403
G1 X88.232 Y121.777 E7735.68856
G1 X87.954 Y121.824
G1 X87.111 Y121.96 E7739.13575
G1 X85.955 Y122.106 E7743.40399
G1 X84.792 Y122.21 E7747.32062
G1 X83.651 Y122.271 E7750.7025
G0 F7200 X83.451 Y122.274
;MESH:NONMESH
G0 F600 X83.451 Y122.274 Z7.8
G0 F7200 X83.451 Y122.174
G0 X81.27 Y122.095
;TIME_ELAPSED:108.511580
;LAYER:5
;TYPE:WALL-OUTER
;MESH:Vaza_zakljucna.STL
G1 F1800 X82.5 Y122.118 E7759.92912
G1 X83.735 Y122.095 E7769.19322
G1 X84.152 Y122.069 E7772.3268
G1 X84.956 Y122.025 E7778.36582
G1 X86.185 Y121.907 E7787.62571
G1 X87.404 Y121.742 E7796.85158
G1 X88.616 Y121.531 E7806.0783
G1 X89.818 Y121.274 E7815.29706
G1 X91.011 Y120.971 E7824.52864
G1 X92.192 Y120.622 E7833.76479
G1 X93.357 Y120.228 E7842.98845
G1 X94.508 Y119.79 E7852.22487
G1 X95.639 Y119.309 E7861.44261
G1 X96.753 Y118.784 E7870.67895
G1 X97.844 Y118.217 E7879.9005
G1 X98.913 Y117.609 E7889.12406
G1 X99.959 Y116.96 E7898.35642
G1 X100.979 Y116.271 E7907.58819
G1 X101.971 Y115.544 E7916.81225
G1 X102.939 Y114.776 E7926.07968
G1 X103.868 Y113.98 E7935.25503
G1 X104.776 Y113.139 E7944.5373
G1 X105.071 Y112.841 E7947.6822
G1 X105.641 Y112.274 E7953.71207
G1 X106.479 Y111.37 E7962.95705
G1 X107.28 Y110.435 E7972.19097
G1 X108.044 Y109.471 E7981.41625
G1 X108.771 Y108.479 E7990.64031
G1 X109.46 Y107.459 E7999.87208
G1 X110.109 Y106.413 E8009.10445
G1 X110.717 Y105.344 E8018.328
G1 X111.284 Y104.253 E8027.54955
G1 X111.809 Y103.139 E8036.78589
G1 X112.29 Y102.008 E8046.00364
G1 X112.728 Y100.857 E8055.24005
G1 X113.122 Y99.692 E8064.46371
G1 X113.471 Y98.511 E8073.69987
G1 X113.774 Y97.318 E8082.93145
G1 X114.031 Y96.116 E8092.1502
G1 X114.242 Y94.904 E8101.37693
G1 X114.408 Y93.679 E8110.6484
G1 X114.446 Y93.263 E8113.78139
G1 X114.525 Y92.461 E8119.8255
G1 X114.595 Y91.23 E8129.07291
G1 X114.618 Y90 E8138.29953
G1 X114.595 Y88.765 E8147.56363
G1 X114.568 Y88.333 E8150.80995
G1 X114.525 Y87.544 E8156.73624
G1 X114.407 Y86.315 E8165.99612
G1 X114.242 Y85.096 E8175.222
G1 X114.031 Y83.884 E8184.44872
G1 X113.774 Y82.682 E8193.66748
G1 X113.471 Y81.489 E8202.89905
G1 X113.122 Y80.308 E8212.13521
G1 X112.728 Y79.143 E8221.35887
G1 X112.29 Y77.992 E8230.59528
G1 X111.809 Y76.861 E8239.81303
G1 X111.284 Y75.747 E8249.04937
G1 X110.717 Y74.656 E8258.27092
G1 X110.109 Y73.587 E8267.49447
G1 X109.46 Y72.541 E8276.72684
G1 X108.771 Y71.521 E8285.95861
G1 X108.044 Y70.529 E8295.18267
G1 X107.276 Y69.561 E8304.4501
G1 X106.48 Y68.632 E8313.62544
G1 X105.639 Y67.724 E8322.90772
G1 X105.331 Y67.419 E8326.15868
G1 X104.774 Y66.859 E8332.08249
G1 X103.87 Y66.021 E8341.32747
G1 X102.935 Y65.22 E8350.56139
G1 X101.971 Y64.456 E8359.78667
G1 X100.979 Y63.729 E8369.01073
G1 X99.959 Y63.04 E8378.2425
G1 X98.913 Y62.391 E8387.47486
G1 X97.844 Y61.783 E8396.69842
G1 X96.753 Y61.216 E8405.91997
G1 X95.639 Y60.691 E8415.15631
G1 X94.508 Y60.21 E8424.37406
G1 X93.357 Y59.772 E8433.61047
G1 X92.192 Y59.378 E8442.83413
G1 X91.011 Y59.029 E8452.07029
G1 X89.818 Y58.726 E8461.30186
G1 X88.616 Y58.469 E8470.52062
G1 X87.404 Y58.258 E8479.74734
G1 X86.179 Y58.092 E8489.01881
G1 X85.763 Y58.054 E8492.1518
G1 X84.961 Y57.975 E8498.19591
G1 X83.73 Y57.905 E8507.44333
G1 X82.5 Y57.882 E8516.66994
G1 X81.265 Y57.905 E8525.93405
G1 X80.848 Y57.931 E8529.06762
G1 X80.044 Y57.975 E8535.10664
G1 X78.815 Y58.093 E8544.36653
G1 X77.596 Y58.258 E8553.5924
G1 X76.384 Y58.469 E8562.81913
G1 X75.182 Y58.726 E8572.03788
G1 X73.989 Y59.029 E8581.26946
G1 X72.808 Y59.378 E8590.50562
G1 X71.643 Y59.772 E8599.72928
G1 X70.492 Y60.21 E8608.96569
G1 X69.361 Y60.691 E8618.18344
G1 X68.247 Y61.216 E8627.41978
G1 X67.156 Y61.783 E8636.64133
G1 X66.087 Y62.391 E8645.86488
G1 X65.041 Y63.04 E8655.09725
G1 X64.021 Y63.729 E8664.32902
G1 X63.029 Y64.456 E8673.55308
G1 X62.061 Y65.224 E8682.82051
G1 X61.132 Y66.02 E8691.99585
G1 X60.224 Y66.861 E8701.27813
G1 X59.929 Y67.159 E8704.42303
G1 X59.359 Y67.726 E8710.4529
G1 X58.521 Y68.63 E8719.69788
G1 X57.72 Y69.565 E8728.93179
G1 X56.956 Y70.529 E8738.15708
G1 X56.229 Y71.521 E8747.38114
G1 X55.54 Y72.541 E8756.61291
G1 X54.891 Y73.587 E8765.84527
G1 X54.283 Y74.656 E8775.06883
G1 X53.716 Y75.747 E8784.29038
G1 X53.191 Y76.861 E8793.52672
G1 X52.71 Y77.992 E8802.74446
G1 X52.272 Y79.143 E8811.98088
G1 X51.878 Y80.308 E8821.20454
G1 X51.529 Y81.489 E8830.44069
G1 X51.226 Y82.682 E8839.67227
G1 X50.969 Y83.884 E8848.89103
G1 X50.758 Y85.096 E8858.11775
G1 X50.592 Y86.321 E8867.38922
G1 X50.554 Y86.737 E8870.52221
G1 X50.475 Y87.539 E8876.56632
G1 X50.405 Y88.77 E8885.81374
G1 X50.382 Y90 E8895.04035
G1 X50.405 Y91.235 E8904.30446
G1 X50.431 Y91.652 E8907.43803
G1 X50.475 Y92.456 E8913.47705
G1 X50.593 Y93.685 E8922.73694
G1 X50.758 Y94.904 E8931.96281
G1 X50.969 Y96.116 E8941.18954
G1 X51.226 Y97.318 E8950.40829
G1 X51.529 Y98.511 E8959.63987
G1 X51.878 Y99.692 E8968.87603
G1 X52.272 Y100.857 E8978.09969
G1 X52.71 Y102.008 E8987.3361
G1 X53.191 Y103.139 E8996.55385
G1 X53.716 Y104.253 E9005.79018
G1 X54.283 Y105.344 E9015.01174
G1 X54.891 Y106.413 E9024.23529
G1 X55.54 Y107.459 E9033.46766
G1 X56.229 Y108.479 E9042.69943
G1 X56.956 Y109.471 E9051.92349
G1 X57.724 Y110.439 E9061.19092
G1 X58.52 Y111.368 E9070.36626
G1 X59.361 Y112.276 E9079.64854
G1 X59.659 Y112.571 E9082.79344
G1 X60.226 Y113.141 E9088.82331
G1 X61.13 Y113.979 E9098.06829
G1 X62.065 Y114.78 E9107.3022
G1 X63.029 Y115.544 E9116.52748
G1 X64.021 Y116.271 E9125.75155
G1 X65.041 Y116.96 E9134.98332
G1 X66.087 Y117.609 E9144.21568
G1 X67.156 Y118.217 E9153.43924
G1 X68.247 Y118.784 E9162.66079
G1 X69.361 Y119.309 E9171.89713
G1 X70.492 Y119.79 E9181.11487
G1 X71.643 Y120.228 E9190.35128
G1 X72.808 Y120.622 E9199.57495
G1 X73.989 Y120.971 E9208.8111
G1 X75.182 Y121.274 E9218.04268
G1 X76.384 Y121.531 E9227.26144
G1 X77.596 Y121.742 E9236.48816
G1 X78.821 Y121.908 E9245.75963
G1 X79.237 Y121.946 E9248.89262
G1 X80.039 Y122.025 E9254.93673
G1 X81.27 Y122.095 E9264.18415
G0 F7200 X81.47 Y122.098
G0 X81.468 Y122.198
G0 X83.709 Y123.161
G0 X83.712 Y123.26
G1 F1800 X82.488 Y123.281 E9266.51148
G1 X82.148 Y123.277
G1 X81.287 Y123.26 E9266.9909
G1 X80.137 Y123.199 E9269.4646
G1 X78.955 Y123.093 E9272.6448
G1 X77.762 Y122.944 E9276.4264
G1 X76.578 Y122.751 E9280.68602
G1 X75.429 Y122.523 E9285.28565
G1 X74.26 Y122.246 E9290.48195
G1 X73.127 Y121.936 E9295.81015
G1 X72.008 Y121.585 E9300.75605
G1 X70.848 Y121.176 E9305.53499
G1 X69.76 Y120.748 E9309.58685
G1 X68.673 Y120.275 E9313.13919
G1 X67.615 Y119.769 E9316.05689
G1 X66.551 Y119.211 E9318.59629
G1 X65.508 Y118.617 E9320.71232
G1 X64.503 Y117.995 E9322.99187
G1 X63.516 Y117.337 E9325.81436
G1 X62.544 Y116.636 E9329.16526
G1 X61.615 Y115.914 E9332.94253
G1 X60.706 Y115.154 E9337.28416
G1 X59.827 Y114.365 E9342.10778
G1 X58.966 Y113.534 E9347.50669
G1 X58.135 Y112.673 E9351.91132
G1 X57.346 Y111.794 E9356.82294
G1 X56.586 Y110.885 E9361.2446
G1 X55.864 Y109.956 E9365.04111
G1 X55.163 Y108.984 E9368.42141
G1 X54.499 Y107.989 E9371.33075
G1 X53.882 Y106.99 E9373.61276
G1 X53.289 Y105.949 E9375.71338
G1 X52.731 Y104.885 E9378.24856
G1 X52.225 Y103.827 E9381.16241
G1 X51.758 Y102.751 E9384.66604
G1 X51.305 Y101.599 E9388.87137
G1 X51.192 Y101.285
G1 X50.926 Y100.524 E9390.64156
G1 X50.564 Y99.373 E9395.84849
G1 X50.254 Y98.24 E9401.26258
G1 X49.977 Y97.071 E9406.57735
G1 X49.749 Y95.922 E9411.2343
G1 X49.556 Y94.738 E9415.49392
G1 X49.407 Y93.545 E9419.32755
G1 X49.301 Y92.363 E9422.58581
G1 X49.24 Y91.212 E9426.81244
G1 X49.219 Y89.988 E9429.13977
G1 X49.223 Y89.648
G1 X49.24 Y88.787 E9429.61919
G1 X49.301 Y87.637 E9432.10254
G1 X49.407 Y86.455 E9435.29171
G1 X49.556 Y85.262 E9439.05956
G1 X49.749 Y84.078 E9443.25018
G1 X49.977 Y82.929 E9447.87075
G1 X50.254 Y81.76 E9453.18552
G1 X50.564 Y80.627 E9458.51372
G1 X50.915 Y79.508 E9463.45962
G1 X51.328 Y78.338 E9468.32194
G1 X51.752 Y77.26 E9472.35346
G1 X52.225 Y76.173 E9475.9058
G1 X52.731 Y75.115 E9478.8235
G1 X53.289 Y74.051 E9481.3629
G1 X53.883 Y73.008 E9483.47893
G1 X54.505 Y72.003 E9485.75849
G1 X55.163 Y71.016 E9488.58097
G1 X55.864 Y70.044 E9491.93187
G1 X56.586 Y69.115 E9495.67467
G1 X57.346 Y68.206 E9500.03361
G1 X58.135 Y67.327 E9504.89989
G1 X58.966 Y66.466 E9510.29879
G1 X59.827 Y65.635 E9514.70343
G1 X60.706 Y64.846 E9519.61504
G1 X61.615 Y64.086 E9524.03671
G1 X62.544 Y63.364 E9527.83321
G1 X63.516 Y62.663 E9531.21352
G1 X64.511 Y61.999 E9534.12286
G1 X65.51 Y61.382 E9536.40487
G1 X66.551 Y60.789 E9538.50548
G1 X67.615 Y60.231 E9541.04488
G1 X68.673 Y59.725 E9543.94798
G1 X69.749 Y59.258 E9547.46682
G1 X70.875 Y58.815 E9551.65895
G1 X71.215 Y58.692
G1 X71.976 Y58.426 E9553.37439
G1 X73.127 Y58.064 E9558.46723
G1 X74.26 Y57.754 E9563.80286
G1 X75.429 Y57.477 E9569.11763
G1 X76.578 Y57.249 E9573.77458
G1 X77.762 Y57.056 E9578.0342
G1 X78.955 Y56.907 E9581.86783
G1 X80.137 Y56.801 E9585.12609
G1 X81.288 Y56.74 E9589.25317
G1 X82.512 Y56.719 E9591.5805
G1 X82.852 Y56.723
G1 X83.713 Y56.74 E9592.05993
G1 X84.863 Y56.801 E9594.54327
G1 X86.045 Y56.907 E9597.73244
G1 X87.238 Y57.056 E9601.50029
G1 X88.422 Y57.249 E9605.73231
G1 X89.571 Y57.477 E9610.38926
G1 X90.74 Y57.754 E9615.63732
G1 X91.873 Y58.064 E9621.05004
G1 X92.992 Y58.415 E9625.99594
G1 X94.152 Y58.824 E9630.77489
G1 X95.24 Y59.252 E9634.82674
G1 X96.327 Y59.725 E9638.37909
G1 X97.385 Y60.231 E9641.29679
G1 X98.449 Y60.789 E9643.83619
G1 X99.492 Y61.383 E9645.95222
G1 X100.497 Y62.005 E9648.23177
G1 X101.484 Y62.663 E9651.05425
G1 X102.456 Y63.364 E9654.425
G1 X103.385 Y64.086 E9658.22018
G1 X104.294 Y64.846 E9662.61017
G1 X105.173 Y65.635 E9667.47644
G1 X106.034 Y66.466 E9672.88189
G1 X106.865 Y67.327 E9677.25546
G1 X107.654 Y68.206 E9682.16707
G1 X108.414 Y69.115 E9686.58874
G1 X109.136 Y70.044 E9690.38524
G1 X109.837 Y71.016 E9693.76555
G1 X110.501 Y72.011 E9696.67489
G1 X111.118 Y73.01 E9698.9569
G1 X111.711 Y74.051 E9701.05751
G1 X112.269 Y75.115 E9703.59691
G1 X112.775 Y76.173 E9706.50001
G1 X113.242 Y77.249 E9709.99048
G1 X113.685 Y78.375 E9714.11742
G1 X113.808 Y78.715
G1 X114.074 Y79.476 E9715.88761
G1 X114.436 Y80.627 E9721.09455
G1 X114.746 Y81.76 E9726.43018
G1 X115.023 Y82.929 E9731.74495
G1 X115.251 Y84.078 E9736.4019
G1 X115.444 Y85.262 E9740.66152
G1 X115.593 Y86.455 E9744.49515
G1 X115.699 Y87.637 E9747.75341
G1 X115.76 Y88.788 E9751.93308
G1 X115.781 Y90.012 E9754.2604
G1 X115.777 Y90.352
G1 X115.76 Y91.213 E9754.73983
G1 X115.699 Y92.363 E9757.21353
G1 X115.593 Y93.545 E9760.39373
G1 X115.444 Y94.738 E9764.17532
G1 X115.251 Y95.922 E9768.43495
G1 X115.023 Y97.071 E9773.03458
G1 X114.746 Y98.24 E9778.29758
G1 X114.436 Y99.373 E9783.7103
G1 X114.085 Y100.492 E9788.6562
G1 X113.676 Y101.652 E9793.43515
G1 X113.248 Y102.74 E9797.487
G1 X112.775 Y103.827 E9801.03934
G1 X112.269 Y104.885 E9803.95704
G1 X111.711 Y105.949 E9806.49644
G1 X111.117 Y106.992 E9808.61247
G1 X110.495 Y107.997 E9810.88945
G1 X109.837 Y108.984 E9813.71986
G1 X109.136 Y109.956 E9817.10017
G1 X108.414 Y110.885 E9820.89534
G1 X107.654 Y111.794 E9825.28533
G1 X106.865 Y112.673 E9830.21374
G1 X106.034 Y113.534 E9835.66772
G1 X105.173 Y114.365 E9840.07236
G1 X104.294 Y115.154 E9844.98397
G1 X103.385 Y115.914 E9849.40564
G1 X102.456 Y116.636 E9853.20214
G1 X101.484 Y117.337 E9856.58245
G1 X100.489 Y118.001 E9859.49179
G1 X99.49 Y118.618 E9861.77379
G1 X98.449 Y119.211 E9863.87441
G1 X97.385 Y119.769 E9866.41381
G1 X96.327 Y120.275 E9869.33151
G1 X95.251 Y120.742 E9872.83513
G1 X94.125 Y121.185 E9877.0008
G1 X93.785 Y121.308
G1 X93.024 Y121.574 E9878.71624
G1 X91.873 Y121.936 E9883.80908
G1 X90.74 Y122.246 E9889.14471
G1 X89.571 Y122.523 E9894.45948
G1 X88.422 Y122.751 E9899.11643
G1 X87.238 Y122.944 E9903.37605
G1 X86.045 Y123.093 E9907.20969
G1 X84.863 Y123.199 E9910.46794
G1 X83.712 Y123.26 E9914.69457
G0 F7200 X83.512 Y123.263
;MESH:NONMESH
G0 F600 X83.512 Y123.263 Z9.3
G0 F7200 X83.512 Y123.163
G0 X81.231 Y123.158
G0 X81.225 Y123.269
;TIME_ELAPSED:122.592922
;LAYER:6
;TYPE:WALL-OUTER
;MESH:Vaza_zakljucna.STL
G1 F1800 X82.504 Y123.293 E9924.28876
G1 X82.996 Y123.282 E9927.97969
G1 X83.773 Y123.269 E9933.808
G1 X85.05 Y123.195 E9943.40157
G1 X86.322 Y123.073 E9952.98535
G1 X86.823 Y123.003 E9956.77935
G1 X87.58 Y122.904 E9962.50519
G1 X88.84 Y122.684 E9972.09816
G1 X90.087 Y122.417 E9981.66264
G1 X91.322 Y122.102 E9991.22168
G1 X92.546 Y121.741 E10000.79263
G92 E0
G1 X93.754 Y121.333 E9.5628
G1 X94.946 Y120.879 E19.12929
G1 X96.124 Y120.378 E28.73012
G1 X96.568 Y120.167 E32.41702
G1 X97.271 Y119.837 E38.24153
G1 X98.405 Y119.249 E47.82188
G1 X99.514 Y118.617 E57.39519
G1 X100.597 Y117.945 E66.95431
G1 X101.654 Y117.231 E76.52098
G1 X102.682 Y116.478 E86.07809
G1 X103.683 Y115.685 E95.65595
G1 X104.65 Y114.855 E105.21363
G1 X105.589 Y113.987 E114.80409
G1 X105.938 Y113.635 E118.52174
G1 X106.488 Y113.088 E124.33948
G1 X107.355 Y112.15 E133.91934
G1 X108.185 Y111.183 E143.47703
G1 X108.978 Y110.182 E153.05489
G1 X109.731 Y109.154 E162.612
G1 X110.445 Y108.097 E172.17867
G1 X111.117 Y107.014 E181.73778
G1 X111.751 Y105.901 E191.34459
G1 X111.976 Y105.463 E195.03768
G1 X112.337 Y104.772 E200.8848
G1 X112.547 Y104.322 E204.60922
G1 X112.879 Y103.622 E210.41977
G1 X113.379 Y102.446 E220.00387
G1 X113.833 Y101.254 E229.57036
G1 X114.241 Y100.046 E239.13316
G1 X114.603 Y98.818 E248.735
G1 X114.726 Y98.327 E252.53129
G1 X114.916 Y97.59 E258.23952
G1 X115.184 Y96.336 E267.8569
G1 X115.403 Y95.085 E277.38209
G1 X115.573 Y93.818 E286.96974
G1 X115.695 Y92.55 E296.52366
G1 X115.769 Y91.275 E306.10225
G1 X115.793 Y89.996 E315.69644
G1 X115.782 Y89.504 E319.38736
G1 X115.769 Y88.727 E325.21568
G1 X115.695 Y87.45 E334.80924
G1 X115.573 Y86.178 E344.39302
G1 X115.503 Y85.677 E348.18702
G1 X115.404 Y84.92 E353.91287
G1 X115.184 Y83.66 E363.50583
G1 X114.917 Y82.413 E373.07031
G1 X114.602 Y81.178 E382.62936
G1 X114.241 Y79.954 E392.2003
G1 X113.833 Y78.746 E401.7631
G1 X113.379 Y77.554 E411.32959
G1 X112.878 Y76.376 E420.93042
G1 X112.337 Y75.229 E430.4418
G1 X111.749 Y74.095 E440.02215
G1 X111.117 Y72.986 E449.59547
G1 X110.445 Y71.903 E459.15458
G1 X109.731 Y70.846 E468.72126
G1 X108.978 Y69.818 E478.27837
G1 X108.185 Y68.817 E487.85622
G1 X107.355 Y67.85 E497.41391
G1 X106.487 Y66.911 E507.00437
G1 X106.126 Y66.553 E510.81747
G1 X105.588 Y66.012 E516.53976
G1 X104.65 Y65.145 E526.11962
G1 X103.683 Y64.315 E535.67731
G1 X102.682 Y63.522 E545.25516
G1 X101.654 Y62.769 E554.81227
G1 X100.597 Y62.055 E564.37895
G1 X99.514 Y61.383 E573.93806
G1 X98.401 Y60.749 E583.54487
G1 X97.95 Y60.517 E587.34867
G1 X97.272 Y60.163 E593.08507
G1 X96.809 Y59.947 E596.91686
G1 X96.122 Y59.621 E602.62004
G1 X94.946 Y59.121 E612.20414
G1 X93.754 Y58.667 E621.77062
G1 X92.546 Y58.259 E631.33343
G1 X91.318 Y57.897 E640.93527
G1 X90.827 Y57.774 E644.73156
G1 X90.09 Y57.584 E650.43978
G1 X88.836 Y57.316 E660.05717
G1 X87.585 Y57.097 E669.58235
G1 X86.318 Y56.927 E679.17001
G1 X85.05 Y56.805 E688.72393
G1 X83.775 Y56.731 E698.30252
G1 X82.496 Y56.707 E707.89671
G1 X82.004 Y56.718 E711.58763
G1 X81.227 Y56.731 E717.41594
G1 X79.95 Y56.805 E727.00951
G1 X78.678 Y56.927 E736.59329
G1 X78.177 Y56.997 E740.38729
G1 X77.42 Y57.096 E746.11314
G1 X76.16 Y57.316 E755.7061
G1 X74.913 Y57.583 E765.27058
G1 X73.678 Y57.898 E774.82963
G1 X72.454 Y58.259 E784.40057
G1 X71.246 Y58.667 E793.96337
G1 X70.054 Y59.121 E803.52986
G1 X68.876 Y59.622 E813.13069
G1 X68.432 Y59.833 E816.81759
G1 X67.729 Y60.163 E822.64209
G1 X66.595 Y60.751 E832.22245
G1 X65.486 Y61.383 E841.79576
G1 X64.403 Y62.055 E851.35487
G1 X63.346 Y62.769 E860.92155
G1 X62.318 Y63.522 E870.47866
G1 X61.317 Y64.315 E880.05652
G1 X60.35 Y65.145 E889.6142
G1 X59.411 Y66.013 E899.20466
G1 X59.062 Y66.365 E902.92231
G1 X58.512 Y66.912 E908.74005
G1 X57.645 Y67.85 E918.31991
G1 X56.815 Y68.817 E927.8776
G1 X56.022 Y69.818 E937.45546
G1 X55.269 Y70.846 E947.01257
G1 X54.555 Y71.903 E956.57924
G1 X53.883 Y72.986 E966.13835
G1 X53.249 Y74.099 E975.74516
G1 X53.024 Y74.537 E979.43825
G1 X52.663 Y75.228 E985.28537
G1 X52.453 Y75.678 E989.00978
G1 X52.121 Y76.378 E994.82034
G1 X51.621 Y77.554 E1004.40444
G1 X51.167 Y78.746 E1013.97092
G1 X50.759 Y79.954 E1023.53373
G1 X50.397 Y81.182 E1033.13557
G1 X50.274 Y81.673 E1036.93186
G1 X50.084 Y82.41 E1042.64009
G1 X49.816 Y83.664 E1052.25747
G1 X49.597 Y84.915 E1061.78266
G1 X49.427 Y86.182 E1071.37031
G1 X49.305 Y87.45 E1080.92423
G1 X49.231 Y88.725 E1090.50282
G1 X49.207 Y90.004 E1100.09701
G1 X49.218 Y90.496 E1103.78793
G1 X49.231 Y91.273 E1109.61625
G1 X49.305 Y92.55 E1119.20981
G1 X49.427 Y93.822 E1128.79359
G1 X49.497 Y94.323 E1132.58759
G1 X49.596 Y95.08 E1138.31344
G1 X49.816 Y96.34 E1147.9064
G1 X50.083 Y97.587 E1157.47088
G1 X50.398 Y98.822 E1167.02993
G1 X50.759 Y100.046 E1176.60087
G1 X51.167 Y101.254 E1186.16367
G1 X51.621 Y102.446 E1195.73016
G1 X52.122 Y103.624 E1205.33099
G1 X52.333 Y104.068 E1209.01789
G1 X52.663 Y104.771 E1214.8424
G1 X53.251 Y105.905 E1224.42275
G1 X53.883 Y107.014 E1233.99606
G1 X54.555 Y108.097 E1243.55518
G1 X55.269 Y109.154 E1253.12185
G1 X56.022 Y110.182 E1262.67896
G1 X56.815 Y111.183 E1272.25682
G1 X57.645 Y112.15 E1281.8145
G1 X58.513 Y113.089 E1291.40496
G1 X58.865 Y113.438 E1295.12261
G1 X59.412 Y113.988 E1300.94035
G1 X60.35 Y114.855 E1310.52021
G1 X61.317 Y115.685 E1320.0779
G1 X62.318 Y116.478 E1329.65576
G1 X63.346 Y117.231 E1339.21287
G1 X64.403 Y117.945 E1348.77954
G1 X65.486 Y118.617 E1358.33865
G1 X66.599 Y119.251 E1367.94546
G1 X67.05 Y119.483 E1371.74926
G1 X67.728 Y119.837 E1377.48566
G1 X68.178 Y120.047 E1381.21007
G1 X68.878 Y120.379 E1387.02063
G1 X70.054 Y120.879 E1396.60473
G1 X71.246 Y121.333 E1406.17121
G1 X72.454 Y121.741 E1415.73402
G1 X73.682 Y122.103 E1425.33586
G1 X74.173 Y122.226 E1429.13215
G1 X74.91 Y122.416 E1434.84037
G1 X76.164 Y122.684 E1444.45776
G1 X77.415 Y122.903 E1453.98294
G1 X78.682 Y123.073 E1463.5706
G1 X79.95 Y123.195 E1473.12452
G1 X81.225 Y123.269 E1482.70311
G0 F7200 X81.425 Y123.272
G0 X81.423 Y123.372
G0 X83.104 Y124.023
G0 X83.105 Y124.122
G1 F1800 X82.5 Y124.131
G1 X81.897 Y124.122 E1483.44241
G1 X81.257 Y124.109
G1 X80.079 Y124.046 E1485.41746
G1 X78.838 Y123.935 E1488.27769
G1 X77.661 Y123.787 E1491.43363
G1 X76.437 Y123.589 E1495.49088
G1 X75.244 Y123.351 E1499.98057
G1 X74.065 Y123.073 E1505.01243
G1 X72.875 Y122.746 E1508.97209
G1 X71.736 Y122.39 E1513.75291
G1 X70.557 Y121.974 E1518.22805
G1 X69.439 Y121.534 E1521.94561
G1 X68.334 Y121.053 E1524.98253
G1 X67.224 Y120.522 E1528.82789
G1 X66.123 Y119.946 E1532.68974
G1 X65.085 Y119.355 E1533.92414
G1 X64.062 Y118.724 E1535.73367
G1 X63.028 Y118.033 E1538.25322
G1 X62.041 Y117.321 E1541.16508
G1 X61.084 Y116.576 E1544.61239
G1 X60.159 Y115.804 E1548.68819
G1 X59.238 Y114.976 E1553.43012
G1 X58.365 Y114.135 E1558.51825
G1 X57.524 Y113.262 E1562.39889
G1 X56.696 Y112.341 E1567.23021
G1 X55.924 Y111.416 E1571.35325
G1 X55.179 Y110.459 E1574.85383
G1 X54.467 Y109.472 E1577.78073
G1 X53.776 Y108.438 E1580.31666
G1 X53.145 Y107.415 E1582.12619
G1 X52.554 Y106.377 E1583.37526
G1 X51.978 Y105.276 E1585.5442
G1 X51.447 Y104.166 E1588.54689
G1 X50.966 Y103.061 E1591.57073
G1 X50.526 Y101.943 E1595.28829
G1 X50.1 Y100.736 E1599.72102
G1 X49.754 Y99.625 E1604.11639
G1 X49.424 Y98.421 E1609.5102
G1 X49.285 Y97.842
G1 X49.152 Y97.272 E1609.98929
G1 X48.911 Y96.06 E1614.54202
G1 X48.811 Y95.454
G1 X48.717 Y94.865 E1616.65223
G1 X48.565 Y93.659 E1620.42271
G1 X48.454 Y92.421 E1623.31961
G1 X48.391 Y91.243 E1625.29708
G1 X48.378 Y90.605 E1625.67107
G1 X48.369 Y89.996
G1 X48.378 Y89.397 E1626.26333
G1 X48.391 Y88.757
G1 X48.454 Y87.579 E1628.25326
G1 X48.565 Y86.338 E1631.15325
G1 X48.713 Y85.161 E1634.38308
G1 X48.911 Y83.937 E1638.4231
G1 X49.149 Y82.744 E1642.85473
G1 X49.427 Y81.565 E1647.8866
G1 X49.754 Y80.375 E1651.84626
G1 X50.11 Y79.236 E1656.62708
G1 X50.526 Y78.057 E1661.10221
G1 X50.966 Y76.939 E1664.81977
G1 X51.447 Y75.834 E1667.85669
G1 X51.978 Y74.724 E1671.81673
G1 X52.554 Y73.623 E1675.86916
G1 X53.145 Y72.585 E1677.10356
G1 X53.776 Y71.562 E1678.91309
G1 X54.467 Y70.528 E1681.43263
G1 X55.179 Y69.541 E1684.3445
G1 X55.924 Y68.584 E1687.84507
G1 X56.696 Y67.659 E1691.89301
G1 X57.524 Y66.738 E1696.65493
G1 X58.365 Y65.865 E1701.82023
G1 X59.238 Y65.024 E1705.70087
G1 X60.159 Y64.196 E1710.53219
G1 X61.084 Y63.424 E1714.65524
G1 X62.041 Y62.679 E1718.15581
G1 X63.028 Y61.967 E1721.08271
G1 X64.062 Y61.276 E1723.61864
G1 X65.085 Y60.645 E1725.42817
G1 X66.123 Y60.054 E1726.67539
G1 X67.224 Y59.478 E1728.84261
G1 X68.334 Y58.947 E1731.8453
G1 X69.439 Y58.466 E1734.82898
G1 X70.557 Y58.026 E1738.4473
G1 X71.751 Y57.604 E1742.80679
G1 X72.875 Y57.254 E1747.30931
G1 X74.079 Y56.924 E1752.80722
G1 X74.645 Y56.788
G1 X75.228 Y56.652 E1753.38418
G1 X76.44 Y56.411 E1757.93691
G1 X77.046 Y56.311
G1 X77.635 Y56.217 E1760.07747
G1 X78.841 Y56.065 E1763.91639
G1 X80.079 Y55.954 E1766.81329
G1 X81.257 Y55.891 E1768.79076
G1 X81.895 Y55.878 E1769.16475
G1 X82.5 Y55.869
G1 X83.103 Y55.878 E1769.90405
G1 X83.743 Y55.891
G1 X84.921 Y55.954 E1771.89398
G1 X86.162 Y56.065 E1774.76825
G1 X87.339 Y56.213 E1777.97528
G1 X88.563 Y56.411 E1782.07977
G1 X89.756 Y56.649 E1786.48439
G1 X90.935 Y56.927 E1791.43972
G1 X92.125 Y57.254 E1795.39547
G1 X93.264 Y57.61 E1800.17628
G1 X94.443 Y58.026 E1804.65142
G1 X95.561 Y58.466 E1808.36898
G1 X96.666 Y58.947 E1811.4059
G1 X97.776 Y59.478 E1815.20827
G1 X98.877 Y60.054 E1819.07013
G1 X99.915 Y60.645 E1820.30453
G1 X100.938 Y61.276 E1822.11406
G1 X101.972 Y61.967 E1824.6336
G1 X102.959 Y62.679 E1827.5124
G1 X103.916 Y63.424 E1830.98293
G1 X104.841 Y64.196 E1835.10597
G1 X105.762 Y65.024 E1839.8479
G1 X106.635 Y65.865 E1844.93025
G1 X107.476 Y66.738 E1848.76346
G1 X108.304 Y67.659 E1853.59478
G1 X109.076 Y68.584 E1857.71782
G1 X109.821 Y69.541 E1861.2184
G1 X110.533 Y70.528 E1864.1453
G1 X111.224 Y71.562 E1866.68123
G1 X111.855 Y72.585 E1868.49076
G1 X112.446 Y73.623 E1869.73983
G1 X113.022 Y74.724 E1871.90877
G1 X113.553 Y75.834 E1874.47123
G1 X114.034 Y76.939 E1877.43738
G1 X114.474 Y78.057 E1881.0557
G1 X114.9 Y79.264 E1885.49598
G1 X115.246 Y80.375 E1889.94868
G1 X115.576 Y81.576 E1895.33651
G1 X115.712 Y82.145
G1 X115.848 Y82.728 E1895.91347
G1 X116.089 Y83.94 E1900.4662
G1 X116.187 Y84.533
G1 X116.283 Y85.135 E1902.67451
G1 X116.435 Y86.341 E1906.44498
G1 X116.546 Y87.579 E1909.34188
G1 X116.609 Y88.757 E1911.31935
G1 X116.622 Y89.383 E1911.64127
G1 X116.631 Y89.996
G1 X116.622 Y90.603 E1912.41058
G1 X116.609 Y91.243
G1 X116.546 Y92.421 E1914.38563
G1 X116.435 Y93.662 E1917.27159
G1 X116.287 Y94.839 E1920.45032
G1 X116.089 Y96.063 E1924.50757
G1 X115.851 Y97.256 E1928.91219
G1 X115.573 Y98.435 E1933.86752
G1 X115.246 Y99.625 E1937.82326
G1 X114.89 Y100.764 E1942.60408
G1 X114.474 Y101.943 E1947.07922
G1 X114.034 Y103.061 E1950.79678
G1 X113.553 Y104.166 E1953.8337
G1 X113.022 Y105.276 E1957.79373
G1 X112.446 Y106.377 E1961.70174
G1 X111.855 Y107.415 E1962.93614
G1 X111.224 Y108.438 E1964.73787
G1 X110.533 Y109.472 E1967.26642
G1 X109.821 Y110.459 E1970.16025
G1 X109.076 Y111.416 E1973.57751
G1 X108.304 Y112.341 E1977.65331
G1 X107.476 Y113.262 E1982.39524
G1 X106.635 Y114.135 E1987.48337
G1 X105.762 Y114.976 E1991.36401
G1 X104.841 Y115.804 E1996.19533
G1 X103.916 Y116.576 E2000.31837
G1 X102.959 Y117.321 E2003.81895
G1 X101.972 Y118.033 E2006.74585
G1 X100.938 Y118.724 E2009.28178
G1 X99.915 Y119.355 E2011.09131
G1 X98.877 Y119.946 E2012.34039
G1 X97.776 Y120.522 E2014.51877
G1 X96.666 Y121.053 E2017.52975
G1 X95.561 Y121.534 E2020.51342
G1 X94.443 Y121.974 E2024.19531
G1 X93.249 Y122.396 E2028.61538
G1 X92.125 Y122.746 E2033.21421
G1 X90.921 Y123.076 E2038.69636
G1 X90.355 Y123.212
G1 X89.772 Y123.348 E2039.27332
G1 X88.56 Y123.589 E2043.82605
G1 X87.954 Y123.689
G1 X87.365 Y123.783 E2045.96662
G1 X86.159 Y123.935 E2049.80553
G1 X84.921 Y124.046 E2052.70243
G1 X83.743 Y124.109 E2054.67991
G1 X83.105 Y124.122 E2055.05071
G0 F7200 X82.905 Y124.124
;MESH:NONMESH
G0 F600 X82.905 Y124.124 Z10.8
G0 F7200 X82.905 Y124.024
G0 X81.199 Y124.007
G0 X81.187 Y124.231
;TIME_ELAPSED:137.128927
;LAYER:7
;TYPE:WALL-OUTER
;MESH:Vaza_zakljucna.STL
G1 F1800 X82.5 Y124.255 E2064.89986
G1 X83.813 Y124.231 E2074.749
G1 X85.123 Y124.155 E2084.59052
G1 X86.429 Y124.03 E2094.43029
G1 X87.761 Y123.85 E2104.51109
G1 X87.868 Y123.828 E2105.33038
G1 X89.02 Y123.629 E2114.09834
G1 X90.306 Y123.355 E2123.95983
G1 X91.577 Y123.031 E2133.79718
G1 X92.837 Y122.66 E2143.64831
G1 X94.08 Y122.239 E2153.49102
G1 X95.305 Y121.772 E2163.3235
G1 X96.514 Y121.259 E2173.17351
G1 X97.7 Y120.699 E2183.01023
G1 X98.894 Y120.08 E2193.0971
G1 X98.989 Y120.023 E2193.92801
G1 X100.03 Y119.431 E2202.90969
G1 X100.096 Y119.388 E2203.50048
G1 X101.12 Y118.754 E2212.53333
G1 X102.209 Y118.019 E2222.38705
G1 X103.267 Y117.244 E2232.22317
G1 X104.296 Y116.428 E2242.07275
G1 X105.292 Y115.573 E2251.9176
G1 X106.275 Y114.663 E2261.96421
G1 X106.329 Y114.606 E2262.55309
G1 X107.182 Y113.755 E2271.58993
G1 X108.073 Y112.792 E2281.42966
G1 X108.928 Y111.796 E2291.27451
G1 X109.744 Y110.767 E2301.12409
G1 X110.519 Y109.709 E2310.96021
G1 X111.253 Y108.621 E2320.80352
G1 X111.966 Y107.472 E2330.94536
G1 X112.014 Y107.381 E2331.71699
G1 X112.612 Y106.336 E2340.74703
G1 X112.66 Y106.236 E2341.57895
G1 X113.198 Y105.202 E2350.32088
G1 X113.759 Y104.014 E2360.17436
G1 X114.272 Y102.805 E2370.02438
G1 X114.739 Y101.58 E2379.85686
G1 X115.172 Y100.301 E2389.98416
G1 X115.197 Y100.205 E2390.72818
G1 X115.539 Y99.051 E2399.75526
G1 X115.565 Y98.938 E2400.62491
G1 X115.854 Y97.808 E2409.37269
G1 X116.129 Y96.522 E2419.23575
G1 X116.359 Y95.201 E2429.2923
G1 X116.375 Y95.061 E2430.34913
G1 X116.53 Y93.93 E2438.91092
G1 X116.655 Y92.623 E2448.75815
G1 X116.731 Y91.313 E2458.59967
G1 X116.755 Y90 E2468.44881
G1 X116.731 Y88.687 E2478.29796
G1 X116.655 Y87.377 E2488.13948
G1 X116.53 Y86.071 E2497.97924
G1 X116.35 Y84.739 E2508.06004
G1 X116.328 Y84.632 E2508.87933
G1 X116.129 Y83.48 E2517.64729
G1 X115.855 Y82.194 E2527.50879
G1 X115.531 Y80.923 E2537.34614
G1 X115.16 Y79.663 E2547.19727
G1 X114.739 Y78.42 E2557.03997
G1 X114.272 Y77.195 E2566.87245
G1 X113.759 Y75.986 E2576.72247
G1 X113.199 Y74.8 E2586.55919
G1 X112.58 Y73.606 E2596.64605
G1 X112.523 Y73.511 E2597.47696
G1 X111.931 Y72.47 E2606.45865
G1 X111.888 Y72.404 E2607.04944
G1 X111.254 Y71.38 E2616.08229
G1 X110.519 Y70.291 E2625.936
G1 X109.744 Y69.233 E2635.77213
G1 X108.928 Y68.204 E2645.62171
G1 X108.073 Y67.208 E2655.46656
G1 X107.163 Y66.225 E2665.51317
G1 X107.103 Y66.168 E2666.13386
G1 X106.255 Y65.318 E2675.13887
G1 X105.292 Y64.427 E2684.9786
G1 X104.296 Y63.572 E2694.82345
G1 X103.267 Y62.756 E2704.67303
G1 X102.209 Y61.981 E2714.50916
G1 X101.121 Y61.247 E2724.35246
G1 X99.972 Y60.534 E2734.49431
G1 X99.881 Y60.486 E2735.26593
G1 X98.836 Y59.888 E2744.29597
G1 X98.736 Y59.84 E2745.1279
G1 X97.702 Y59.302 E2753.86982
G1 X96.514 Y58.741 E2763.72331
G1 X95.305 Y58.228 E2773.57332
G1 X94.08 Y57.761 E2783.4058
G1 X92.801 Y57.328 E2793.53311
G1 X92.705 Y57.303 E2794.27712
G1 X91.551 Y56.961 E2803.30421
G1 X91.438 Y56.935 E2804.17385
G1 X90.308 Y56.646 E2812.92163
G1 X89.022 Y56.371 E2822.78469
G1 X87.701 Y56.141 E2832.84124
G1 X87.582 Y56.127 E2833.7399
G1 X86.43 Y55.97 E2842.45976
G1 X85.123 Y55.845 E2852.30699
G1 X83.813 Y55.769 E2862.14851
G1 X82.5 Y55.745 E2871.99766
G1 X81.187 Y55.769 E2881.8468
G1 X79.877 Y55.845 E2891.68832
G1 X78.571 Y55.97 E2901.52809
G1 X77.239 Y56.15 E2911.60889
G1 X77.132 Y56.172 E2912.42818
G1 X75.98 Y56.371 E2921.19614
G1 X74.694 Y56.645 E2931.05763
G1 X73.423 Y56.969 E2940.89498
G1 X72.163 Y57.34 E2950.74611
G1 X70.92 Y57.761 E2960.58882
G1 X69.695 Y58.228 E2970.4213
G1 X68.486 Y58.741 E2980.27131
G1 X67.3 Y59.301 E2990.10803
G1 X66.106 Y59.92 E3000.1949
G1 X66.011 Y59.977 E3001.02581
G1 X64.97 Y60.569 E3010.00749
G1 X64.904 Y60.612 E3010.59828
G1 X63.88 Y61.246 E3019.63113
G1 X62.791 Y61.981 E3029.48485
G1 X61.733 Y62.756 E3039.32097
G1 X60.704 Y63.572 E3049.17055
G1 X59.708 Y64.427 E3059.0154
G1 X58.725 Y65.337 E3069.06201
G1 X58.671 Y65.394 E3069.65089
G1 X57.818 Y66.245 E3078.68773
G1 X56.927 Y67.208 E3088.52746
G1 X56.072 Y68.204 E3098.37231
G1 X55.256 Y69.233 E3108.22188
G1 X54.481 Y70.291 E3118.05801
G1 X53.747 Y71.379 E3127.90131
G1 X53.034 Y72.528 E3138.04316
G1 X52.986 Y72.619 E3138.81479
G1 X52.388 Y73.664 E3147.84483
G1 X52.34 Y73.764 E3148.67675
G1 X51.802 Y74.798 E3157.41868
G1 X51.241 Y75.986 E3167.27216
G1 X50.728 Y77.195 E3177.12218
G1 X50.261 Y78.42 E3186.95466
G1 X49.828 Y79.699 E3197.08196
G1 X49.803 Y79.795 E3197.82598
G1 X49.461 Y80.949 E3206.85306
G1 X49.435 Y81.062 E3207.72271
G1 X49.146 Y82.192 E3216.47049
G1 X48.871 Y83.478 E3226.33355
G1 X48.641 Y84.799 E3236.3901
G1 X48.627 Y84.918 E3237.28875
G1 X48.47 Y86.07 E3246.00862
G1 X48.345 Y87.377 E3255.85585
G1 X48.269 Y88.687 E3265.69737
G1 X48.245 Y90 E3275.54651
G1 X48.269 Y91.313 E3285.39566
G1 X48.345 Y92.623 E3295.23718
G1 X48.47 Y93.929 E3305.07694
G1 X48.65 Y95.261 E3315.15775
G1 X48.672 Y95.368 E3315.97703
G1 X48.871 Y96.52 E3324.74499
G1 X49.145 Y97.806 E3334.60649
G1 X49.469 Y99.077 E3344.44384
G1 X49.84 Y100.337 E3354.29497
G1 X50.261 Y101.58 E3364.13767
G1 X50.728 Y102.805 E3373.97015
G1 X51.241 Y104.014 E3383.82017
G1 X51.801 Y105.2 E3393.65689
G1 X52.42 Y106.394 E3403.74375
G1 X52.477 Y106.489 E3404.57466
G1 X53.069 Y107.53 E3413.55635
G1 X53.112 Y107.596 E3414.14714
G1 X53.746 Y108.62 E3423.17999
G1 X54.481 Y109.709 E3433.0337
G1 X55.256 Y110.767 E3442.86983
G1 X56.072 Y111.796 E3452.71941
G1 X56.927 Y112.792 E3462.56426
G1 X57.837 Y113.775 E3472.61087
G1 X57.894 Y113.829 E3473.19975
G1 X58.745 Y114.682 E3482.23658
G1 X59.708 Y115.573 E3492.07631
G1 X60.704 Y116.428 E3501.92116
G1 X61.733 Y117.244 E3511.77074
G1 X62.791 Y118.019 E3521.60687
G1 X63.879 Y118.753 E3531.45017
G1 X65.028 Y119.466 E3541.59202
G1 X65.119 Y119.514 E3542.36364
G1 X66.164 Y120.112 E3551.39368
G1 X66.264 Y120.16 E3552.22561
G1 X67.298 Y120.698 E3560.96753
G1 X68.486 Y121.259 E3570.82102
G1 X69.695 Y121.772 E3580.67103
G1 X70.92 Y122.239 E3590.50351
G1 X72.199 Y122.672 E3600.63082
G1 X72.295 Y122.697 E3601.37483
G1 X73.449 Y123.039 E3610.40192
G1 X73.562 Y123.065 E3611.27156
G1 X74.692 Y123.354 E3620.01934
G1 X75.978 Y123.629 E3629.8824
G1 X77.299 Y123.859 E3639.93895
G1 X77.418 Y123.873 E3640.83761
G1 X78.57 Y124.03 E3649.55747
G1 X79.877 Y124.155 E3659.4047
G1 X81.187 Y124.231 E3669.24622
G0 F7200 X81.387 Y124.234
G0 X81.385 Y124.334
G0 X83.762 Y124.743
G0 X83.765 Y124.842
G1 F1800 X82.497 Y124.864 E3670.49976
G1 X81.262 Y124.844 E3671.68486
G1 X80.022 Y124.777 E3673.54455
G1 X78.786 Y124.666 E3676.00527
G1 X77.537 Y124.51 E3679.109
G1 X76.297 Y124.308 E3682.66736
G1 X75.093 Y124.069 E3686.83625
G1 X73.869 Y123.779 E3691.67988
G1 X72.681 Y123.454 E3696.61537
G1 X71.48 Y123.078 E3701.71883
G1 X70.321 Y122.669 E3705.85471
G1 X69.153 Y122.208 E3709.43114
G1 X68.038 Y121.723 E3712.13437
G1 X66.871 Y121.166 E3714.58327
G1 X65.818 Y120.615 E3716.92373
G1 X64.695 Y119.975 E3719.03928
G1 X63.659 Y119.335 E3719.7184
G1 X62.605 Y118.632 E3721.839
G1 X61.614 Y117.916 E3724.41865
G1 X60.612 Y117.139 E3727.74493
G1 X59.683 Y116.362 E3731.53092
G1 X58.736 Y115.511 E3736.17882
G1 X57.847 Y114.653 E3741.09842
G1 X56.989 Y113.764 E3746.07583
G1 X56.138 Y112.817 E3750.86027
G1 X55.361 Y111.888 E3754.70911
G1 X54.584 Y110.886 E3758.10785
G1 X53.868 Y109.895 E3760.68751
G1 X53.165 Y108.841 E3762.79743
G1 X52.525 Y107.805 E3764.7911
G1 X51.885 Y106.682 E3766.80362
G1 X51.334 Y105.629 E3767.94198
G1 X50.777 Y104.462 E3770.38572
G1 X50.292 Y103.347 E3773.08895
G1 X49.831 Y102.179 E3776.58152
G1 X49.422 Y101.02 E3780.62827
G1 X49.046 Y99.819 E3785.52074
G1 X48.784 Y98.866 E3788.66802
G1 X48.718 Y98.619
G1 X48.43 Y97.4 E3793.78114
G1 X48.237 Y96.433 E3796.22903
G1 X48.19 Y96.19
G1 X47.988 Y94.947 E3801.04809
G1 X47.837 Y93.747 E3804.00147
G1 X47.723 Y92.478 E3806.55541
G1 X47.658 Y91.265 E3808.2294
G1 X47.636 Y90 E3809.46044
G1 X47.658 Y88.735 E3810.69147
G1 X47.723 Y87.522 E3812.34422
G1 X47.834 Y86.286 E3814.85097
G1 X47.99 Y85.037 E3817.99732
G1 X48.192 Y83.797 E3821.55568
G1 X48.431 Y82.593 E3825.72457
G1 X48.721 Y81.369 E3830.65248
G1 X49.046 Y80.181 E3835.66934
G1 X49.422 Y78.98 E3840.86944
G1 X49.831 Y77.821 E3845.00532
G1 X50.292 Y76.653 E3848.58175
G1 X50.777 Y75.538 E3851.28498
G1 X51.334 Y74.371 E3853.73388
G1 X51.885 Y73.318 E3856.07435
G1 X52.525 Y72.195 E3858.18989
G1 X53.165 Y71.159 E3858.86901
G1 X53.868 Y70.105 E3860.96596
G1 X54.584 Y69.114 E3863.47119
G1 X55.361 Y68.112 E3866.74774
G1 X56.138 Y67.183 E3870.53374
G1 X56.999 Y66.225 E3875.19693
G1 X57.857 Y65.337 E3880.01799
G1 X58.736 Y64.489 E3884.88982
G1 X59.683 Y63.638 E3889.67426
G1 X60.612 Y62.861 E3893.5231
G1 X61.626 Y62.075 E3897.03614
G1 X62.605 Y61.368 E3899.60617
G1 X63.659 Y60.665 E3901.71609
G1 X64.695 Y60.025 E3903.70976
G1 X65.818 Y59.385 E3905.72229
G1 X66.871 Y58.834 E3906.88101
G1 X68.038 Y58.277 E3909.31562
G1 X69.153 Y57.792 E3911.93217
G1 X70.321 Y57.331 E3915.36816
G1 X71.48 Y56.922 E3919.30288
G1 X72.681 Y56.546 E3923.96386
G1 X73.634 Y56.284 E3927.11114
G1 X73.881 Y56.218
G1 X75.1 Y55.93 E3932.22425
G1 X76.067 Y55.737 E3934.67215
G1 X76.31 Y55.69
G1 X77.553 Y55.488 E3939.49121
G1 X78.753 Y55.337 E3942.44459
G1 X80.022 Y55.223 E3944.99853
G1 X81.235 Y55.158 E3946.67252
G1 X82.5 Y55.136 E3947.90355
G1 X83.765 Y55.158 E3949.13459
G1 X84.978 Y55.223 E3950.80858
G1 X86.214 Y55.334 E3953.28881
G1 X87.463 Y55.49 E3956.39254
G1 X88.703 Y55.692 E3959.9509
G1 X89.907 Y55.931 E3964.23879
G1 X91.131 Y56.221 E3969.18921
G1 X92.319 Y56.546 E3974.12471
G1 X93.52 Y56.922 E3979.32481
G1 X94.679 Y57.331 E3983.46069
G1 X95.847 Y57.792 E3987.03712
G1 X96.962 Y58.277 E3989.74035
G1 X98.129 Y58.834 E3992.18925
G1 X99.182 Y59.385 E3994.52971
G1 X100.305 Y60.025 E3996.64526
G1 X101.341 Y60.665 E3997.31281
G1 X102.395 Y61.368 E3999.42327
G1 X103.374 Y62.075 E4001.93645
G1 X104.388 Y62.861 E4005.39546
G1 X105.317 Y63.638 E4009.13648
G1 X106.264 Y64.489 E4013.68461
G1 X107.143 Y65.337 E4018.69873
G1 X108.001 Y66.225 E4023.66475
G1 X108.862 Y67.183 E4028.46129
G1 X109.639 Y68.112 E4032.31013
G1 X110.416 Y69.114 E4035.70887
G1 X111.132 Y70.105 E4038.28853
G1 X111.835 Y71.159 E4040.39844
G1 X112.475 Y72.195 E4042.39211
G1 X113.115 Y73.318 E4044.40464
G1 X113.666 Y74.371 E4045.543
G1 X114.223 Y75.538 E4047.95853
G1 X114.708 Y76.653 E4050.57508
G1 X115.169 Y77.821 E4054.09493
G1 X115.578 Y78.98 E4058.21576
G1 X115.954 Y80.181 E4062.97805
G1 X116.216 Y81.134 E4066.37516
G1 X116.282 Y81.381
G1 X116.57 Y82.6 E4071.48827
G1 X116.763 Y83.567 E4073.93617
G1 X116.81 Y83.81
G1 X117.012 Y85.053 E4078.75523
G1 X117.136 Y86.025 E4079.95058
G1 X117.163 Y86.253
G1 X117.277 Y87.522 E4082.50452
G1 X117.342 Y88.735 E4084.17851
G1 X117.364 Y90 E4085.40954
G1 X117.342 Y91.265 E4086.64058
G1 X117.277 Y92.478 E4088.29332
G1 X117.168 Y93.698 E4090.7399
G1 X117.01 Y94.963 E4093.98749
G1 X116.808 Y96.203 E4097.45334
G1 X116.569 Y97.407 E4101.66248
G1 X116.279 Y98.631 E4106.6129
G1 X115.954 Y99.819 E4111.54839
G1 X115.578 Y101.02 E4116.62988
G1 X115.169 Y102.179 E4120.76576
G1 X114.708 Y103.347 E4124.34219
G1 X114.223 Y104.462 E4127.04542
G1 X113.666 Y105.629 E4129.49432
G1 X113.115 Y106.682 E4131.83479
G1 X112.475 Y107.805 E4133.95033
G1 X111.835 Y108.841 E4134.62945
G1 X111.132 Y109.895 E4136.75005
G1 X110.416 Y110.886 E4139.27654
G1 X109.639 Y111.888 E4142.55309
G1 X108.862 Y112.817 E4146.23126
G1 X108.011 Y113.764 E4150.77939
G1 X107.153 Y114.653 E4155.69899
G1 X106.264 Y115.511 E4160.6764
G1 X105.317 Y116.362 E4165.46084
G1 X104.388 Y117.139 E4169.30968
G1 X103.386 Y117.916 E4172.70842
G1 X102.395 Y118.632 E4175.28808
G1 X101.341 Y119.335 E4177.398
G1 X100.305 Y119.975 E4179.39166
G1 X99.182 Y120.615 E4181.40419
G1 X98.129 Y121.166 E4182.56292
G1 X96.962 Y121.723 E4184.99752
G1 X95.847 Y122.208 E4187.61408
G1 X94.679 Y122.669 E4191.05007
G1 X93.52 Y123.078 E4195.09681
G1 X92.319 Y123.454 E4199.98929
G1 X91.366 Y123.716 E4203.13657
G1 X91.119 Y123.782
G1 X89.9 Y124.07 E4208.24968
G1 X88.933 Y124.263 E4210.69758
G1 X88.69 Y124.31
G1 X87.447 Y124.512 E4215.51664
G1 X86.247 Y124.663 E4218.47002
G1 X84.978 Y124.777 E4221.02396
G1 X83.765 Y124.842 E4222.69795
G0 F7200 X83.565 Y124.845
;MESH:NONMESH
G0 F600 X83.565 Y124.845 Z12.3
G0 F7200 X83.565 Y124.745
G0 X81.173 Y124.74
G0 X81.157 Y125.025
;TIME_ELAPSED:152.020257
;LAYER:8
;TYPE:WALL-OUTER
;MESH:Vaza_zakljucna.STL
G1 F1800 X82.5 Y125.05 E4232.77219
G1 X83.843 Y125.025 E4242.84644
G1 X85.184 Y124.947 E4252.92094
